server/data/luts/film-lab-export_4_.cube
LUT_3D_SIZE 33
1.000000 1.000000 1.000000
1.000000 1.000000 1.000000
1.000000 1.000000 1.000000
1.000000 1.000000 1.000000
1.000000 1.000000 1.000000
1.000000 1.000000 1.000000
0.917647 1.000000 1.000000
0.823529 1.000000 1.000000
0.741176 1.000000 1.000000
0.670588 1.000000 1.000000
0.603922 1.000000 1.000000
0.549020 1.000000 1.000000
0.494118 1.000000 1.000000
0.439216 1.000000 1.000000
0.396078 1.000000 1.000000
0.356863 1.000000 1.000000
0.313725 1.000000 1.000000
0.274510 1.000000 1.000000
0.231373 1.000000 1.000000
0.203922 1.000000 1.000000
0.176471 1.000000 1.000000
0.137255 1.000000 1.000000
0.109804 1.000000 1.000000
0.082353 1.000000 1.000000
0.054902 1.000000 1.000000
0.027451 1.000000 1.000000
0.011765 1.000000 1.000000
0.000000 1.000000 1.000000
0.000000 1.000000 1.000000
0.000000 1.000000 1.000000
0.000000 1.000000 1.000000
0.000000 1.000000 1.000000
0.000000 1.000000 1.000000
1.000000 1.000000 1.000000
1.000000 1.000000 1.000000
1.000000 1.000000 1.000000
1.000000 1.000000 1.000000
1.000000 1.000000 1.000000
1.000000 1.000000 1.000000
0.917647 1.000000 1.000000
0.823529 1.000000 1.000000
0.741176 1.000000 1.000000
0.670588 1.000000 1.000000
0.603922 1.000000 1.000000
0.549020 1.000000 1.000000
0.494118 1.000000 1.000000
0.439216 1.000000 1.000000
0.396078 1.000000 1.000000
0.356863 1.000000 1.000000
0.313725 1.000000 1.000000
0.274510 1.000000 1.000000
0.231373 1.000000 1.000000
0.203922 1.000000 1.000000
0.176471 1.000000 1.000000
0.137255 1.000000 1.000000
0.109804 1.000000 1.000000
0.082353 1.000000 1.000000
0.054902 1.000000 1.000000
0.027451 1.000000 1.000000
0.011765 1.000000 1.000000
0.000000 1.000000 1.000000
0.000000 1.000000 1.000000
0.000000 1.000000 1.000000
0.000000 1.000000 1.000000
0.000000 1.000000 1.000000
0.000000 1.000000 1.000000
1.000000 1.000000 1.000000
1.000000 1.000000 1.000000
1.000000 1.000000 1.000000
1.000000 1.000000 1.000000
1.000000 1.000000 1.000000
1.000000 1.000000 1.000000
0.917647 1.000000 1.000000
0.823529 1.000000 1.000000
0.741176 1.000000 1.000000
0.670588 1.000000 1.000000
0.603922 1.000000 1.000000
0.549020 1.000000 1.000000
0.494118 1.000000 1.000000
0.439216 1.000000 1.000000
0.396078 1.000000 1.000000
0.356863 1.000000 1.000000
0.313725 1.000000 1.000000
0.274510 1.000000 1.000000
0.231373 1.000000 1.000000
0.203922 1.000000 1.000000
0.176471 1.000000 1.000000
0.137255 1.000000 1.000000
0.109804 1.000000 1.000000
0.082353 1.000000 1.000000
0.054902 1.000000 1.000000
0.027451 1.000000 1.000000
0.011765 1.000000 1.000000
0.000000 1.000000 1.000000
0.000000 1.000000 1.000000
0.000000 1.000000 1.000000
0.000000 1.000000 1.000000
0.000000 1.000000 1.000000
0.000000 1.000000 1.000000
1.000000 1.000000 1.000000
1.000000 1.000000 1.000000
1.000000 1.000000 1.000000
1.000000 1.000000 1.000000
1.000000 1.000000 1.000000
1.000000 1.000000 1.000000
0.917647 1.000000 1.000000
0.823529 1.000000 1.000000
0.741176 1.000000 1.000000
0.670588 1.000000 1.000000
0.603922 1.000000 1.000000
0.549020 1.000000 1.000000
0.494118 1.000000 1.000000
0.439216 1.000000 1.000000
0.396078 1.000000 1.000000
0.356863 1.000000 1.000000
0.313725 1.000000 1.000000
0.274510 1.000000 1.000000
0.231373 1.000000 1.000000
0.203922 1.000000 1.000000
0.176471 1.000000 1.000000
0.137255 1.000000 1.000000
0.109804 1.000000 1.000000
0.082353 1.000000 1.000000
0.054902 1.000000 1.000000
0.027451 1.000000 1.000000
0.011765 1.000000 1.000000
0.000000 1.000000 1.000000
0.000000 1.000000 1.000000
0.000000 1.000000 1.000000
0.000000 1.000000 1.000000
0.000000 1.000000 1.000000
0.000000 1.000000 1.000000
1.000000 1.000000 1.000000
1.000000 1.000000 1.000000
1.000000 1.000000 1.000000
1.000000 1.000000 1.000000
1.000000 1.000000 1.000000
1.000000 1.000000 1.000000
0.917647 1.000000 1.000000
0.823529 1.000000 1.000000
0.741176 1.000000 1.000000
0.670588 1.000000 1.000000
0.603922 1.000000 1.000000
0.549020 1.000000 1.000000
0.494118 1.000000 1.000000
0.439216 1.000000 1.000000
0.396078 1.000000 1.000000
0.356863 1.000000 1.000000
0.313725 1.000000 1.000000
0.274510 1.000000 1.000000
0.231373 1.000000 1.000000
0.203922 1.000000 1.000000
0.176471 1.000000 1.000000
0.137255 1.000000 1.000000
0.109804 1.000000 1.000000
0.082353 1.000000 1.000000
0.054902 1.000000 1.000000
0.027451 1.000000 1.000000
0.011765 1.000000 1.000000
0.000000 1.000000 1.000000
0.000000 1.000000 1.000000
0.000000 1.000000 1.000000
0.000000 1.000000 1.000000
0.000000 1.000000 1.000000
0.000000 1.000000 1.000000
1.000000 1.000000 1.000000
1.000000 1.000000 1.000000
1.000000 1.000000 1.000000
1.000000 1.000000 1.000000
1.000000 1.000000 1.000000
1.000000 1.000000 1.000000
0.917647 1.000000 1.000000
0.823529 1.000000 1.000000
0.741176 1.000000 1.000000
0.670588 1.000000 1.000000
0.603922 1.000000 1.000000
0.549020 1.000000 1.000000
0.494118 1.000000 1.000000
0.439216 1.000000 1.000000
0.396078 1.000000 1.000000
0.356863 1.000000 1.000000
0.313725 1.000000 1.000000
0.274510 1.000000 1.000000
0.231373 1.000000 1.000000
0.203922 1.000000 1.000000
0.176471 1.000000 1.000000
0.137255 1.000000 1.000000
0.109804 1.000000 1.000000
0.082353 1.000000 1.000000
0.054902 1.000000 1.000000
0.027451 1.000000 1.000000
0.011765 1.000000 1.000000
0.000000 1.000000 1.000000
0.000000 1.000000 1.000000
0.000000 1.000000 1.000000
0.000000 1.000000 1.000000
0.000000 1.000000 1.000000
0.000000 1.000000 1.000000
1.000000 1.000000 1.000000
1.000000 1.000000 1.000000
1.000000 1.000000 1.000000
1.000000 1.000000 1.000000
1.000000 1.000000 1.000000
1.000000 1.000000 1.000000
0.917647 1.000000 1.000000
0.823529 1.000000 1.000000
0.741176 1.000000 1.000000
0.670588 1.000000 1.000000
0.603922 1.000000 1.000000
0.549020 1.000000 1.000000
0.494118 1.000000 1.000000
0.439216 1.000000 1.000000
0.396078 1.000000 1.000000
0.356863 1.000000 1.000000
0.313725 1.000000 1.000000
0.274510 1.000000 1.000000
0.231373 1.000000 1.000000
0.203922 1.000000 1.000000
0.176471 1.000000 1.000000
0.137255 1.000000 1.000000
0.109804 1.000000 1.000000
0.082353 1.000000 1.000000
0.054902 1.000000 1.000000
0.027451 1.000000 1.000000
0.011765 1.000000 1.000000
0.000000 1.000000 1.000000
0.000000 1.000000 1.000000
0.000000 1.000000 1.000000
0.000000 1.000000 1.000000
0.000000 1.000000 1.000000
0.000000 1.000000 1.000000
1.000000 1.000000 1.000000
1.000000 1.000000 1.000000
1.000000 1.000000 1.000000
1.000000 1.000000 1.000000
1.000000 1.000000 1.000000
1.000000 1.000000 1.000000
0.917647 1.000000 1.000000
0.823529 1.000000 1.000000
0.741176 1.000000 1.000000
0.670588 1.000000 1.000000
0.603922 1.000000 1.000000
0.549020 1.000000 1.000000
0.494118 1.000000 1.000000
0.439216 1.000000 1.000000
0.396078 1.000000 1.000000
0.356863 1.000000 1.000000
0.313725 1.000000 1.000000
0.274510 1.000000 1.000000
0.231373 1.000000 1.000000
0.203922 1.000000 1.000000
0.176471 1.000000 1.000000
0.137255 1.000000 1.000000
0.109804 1.000000 1.000000
0.082353 1.000000 1.000000
0.054902 1.000000 1.000000
0.027451 1.000000 1.000000
0.011765 1.000000 1.000000
0.000000 1.000000 1.000000
0.000000 1.000000 1.000000
0.000000 1.000000 1.000000
0.000000 1.000000 1.000000
0.000000 1.000000 1.000000
0.000000 1.000000 1.000000
1.000000 1.000000 1.000000
1.000000 1.000000 1.000000
1.000000 1.000000 1.000000
1.000000 1.000000 1.000000
1.000000 1.000000 1.000000
1.000000 1.000000 1.000000
0.917647 1.000000 1.000000
0.823529 1.000000 1.000000
0.741176 1.000000 1.000000
0.670588 1.000000 1.000000
0.603922 1.000000 1.000000
0.549020 1.000000 1.000000
0.494118 1.000000 1.000000
0.439216 1.000000 1.000000
0.396078 1.000000 1.000000
0.356863 1.000000 1.000000
0.313725 1.000000 1.000000
0.274510 1.000000 1.000000
0.231373 1.000000 1.000000
0.203922 1.000000 1.000000
0.176471 1.000000 1.000000
0.137255 1.000000 1.000000
0.109804 1.000000 1.000000
0.082353 1.000000 1.000000
0.054902 1.000000 1.000000
0.027451 1.000000 1.000000
0.011765 1.000000 1.000000
0.000000 1.000000 1.000000
0.000000 1.000000 1.000000
0.000000 1.000000 1.000000
0.000000 1.000000 1.000000
0.000000 1.000000 1.000000
0.000000 1.000000 1.000000
1.000000 0.980392 1.000000
1.000000 0.980392 1.000000
1.000000 0.980392 1.000000
1.000000 0.980392 1.000000
1.000000 0.980392 1.000000
1.000000 0.980392 1.000000
0.917647 0.980392 1.000000
0.823529 0.980392 1.000000
0.741176 0.980392 1.000000
0.670588 0.980392 1.000000
0.603922 0.980392 1.000000
0.549020 0.980392 1.000000
0.494118 0.980392 1.000000
0.439216 0.980392 1.000000
0.396078 0.980392 1.000000
0.356863 0.980392 1.000000
0.313725 0.980392 1.000000
0.274510 0.980392 1.000000
0.231373 0.980392 1.000000
0.203922 0.980392 1.000000
0.176471 0.980392 1.000000
0.137255 0.980392 1.000000
0.109804 0.980392 1.000000
0.082353 0.980392 1.000000
0.054902 0.980392 1.000000
0.027451 0.980392 1.000000
0.011765 0.980392 1.000000
0.000000 0.980392 1.000000
0.000000 0.980392 1.000000
0.000000 0.980392 1.000000
0.000000 0.980392 1.000000
0.000000 0.980392 1.000000
0.000000 0.980392 1.000000
1.000000 0.870588 1.000000
1.000000 0.870588 1.000000
1.000000 0.870588 1.000000
1.000000 0.870588 1.000000
1.000000 0.870588 1.000000
1.000000 0.870588 1.000000
0.917647 0.870588 1.000000
0.823529 0.870588 1.000000
0.741176 0.870588 1.000000
0.670588 0.870588 1.000000
0.603922 0.870588 1.000000
0.549020 0.870588 1.000000
0.494118 0.870588 1.000000
0.439216 0.870588 1.000000
0.396078 0.870588 1.000000
0.356863 0.870588 1.000000
0.313725 0.870588 1.000000
0.274510 0.870588 1.000000
0.231373 0.870588 1.000000
0.203922 0.870588 1.000000
0.176471 0.870588 1.000000
0.137255 0.870588 1.000000
0.109804 0.870588 1.000000
0.082353 0.870588 1.000000
0.054902 0.870588 1.000000
0.027451 0.870588 1.000000
0.011765 0.870588 1.000000
0.000000 0.870588 1.000000
0.000000 0.870588 1.000000
0.000000 0.870588 1.000000
0.000000 0.870588 1.000000
0.000000 0.870588 1.000000
0.000000 0.870588 1.000000
1.000000 0.788235 1.000000
1.000000 0.788235 1.000000
1.000000 0.788235 1.000000
1.000000 0.788235 1.000000
1.000000 0.788235 1.000000
1.000000 0.788235 1.000000
0.917647 0.788235 1.000000
0.823529 0.788235 1.000000
0.741176 0.788235 1.000000
0.670588 0.788235 1.000000
0.603922 0.788235 1.000000
0.549020 0.788235 1.000000
0.494118 0.788235 1.000000
0.439216 0.788235 1.000000
0.396078 0.788235 1.000000
0.356863 0.788235 1.000000
0.313725 0.788235 1.000000
0.274510 0.788235 1.000000
0.231373 0.788235 1.000000
0.203922 0.788235 1.000000
0.176471 0.788235 1.000000
0.137255 0.788235 1.000000
0.109804 0.788235 1.000000
0.082353 0.788235 1.000000
0.054902 0.788235 1.000000
0.027451 0.788235 1.000000
0.011765 0.788235 1.000000
0.000000 0.788235 1.000000
0.000000 0.788235 1.000000
0.000000 0.788235 1.000000
0.000000 0.788235 1.000000
0.000000 0.788235 1.000000
0.000000 0.788235 1.000000
1.000000 0.701961 1.000000
1.000000 0.701961 1.000000
1.000000 0.701961 1.000000
1.000000 0.701961 1.000000
1.000000 0.701961 1.000000
1.000000 0.701961 1.000000
0.917647 0.701961 1.000000
0.823529 0.701961 1.000000
0.741176 0.701961 1.000000
0.670588 0.701961 1.000000
0.603922 0.701961 1.000000
0.549020 0.701961 1.000000
0.494118 0.701961 1.000000
0.439216 0.701961 1.000000
0.396078 0.701961 1.000000
0.356863 0.701961 1.000000
0.313725 0.701961 1.000000
0.274510 0.701961 1.000000
0.231373 0.701961 1.000000
0.203922 0.701961 1.000000
0.176471 0.701961 1.000000
0.137255 0.701961 1.000000
0.109804 0.701961 1.000000
0.082353 0.701961 1.000000
0.054902 0.701961 1.000000
0.027451 0.701961 1.000000
0.011765 0.701961 1.000000
0.000000 0.701961 1.000000
0.000000 0.701961 1.000000
0.000000 0.701961 1.000000
0.000000 0.701961 1.000000
0.000000 0.701961 1.000000
0.000000 0.701961 1.000000
1.000000 0.615686 1.000000
1.000000 0.615686 1.000000
1.000000 0.615686 1.000000
1.000000 0.615686 1.000000
1.000000 0.615686 1.000000
1.000000 0.615686 1.000000
0.917647 0.615686 1.000000
0.823529 0.615686 1.000000
0.741176 0.615686 1.000000
0.670588 0.615686 1.000000
0.603922 0.615686 1.000000
0.549020 0.615686 1.000000
0.494118 0.615686 1.000000
0.439216 0.615686 1.000000
0.396078 0.615686 1.000000
0.356863 0.615686 1.000000
0.313725 0.615686 1.000000
0.274510 0.615686 1.000000
0.231373 0.615686 1.000000
0.203922 0.615686 1.000000
0.176471 0.615686 1.000000
0.137255 0.615686 1.000000
0.109804 0.615686 1.000000
0.082353 0.615686 1.000000
0.054902 0.615686 1.000000
0.027451 0.615686 1.000000
0.011765 0.615686 1.000000
0.000000 0.615686 1.000000
0.000000 0.615686 1.000000
0.000000 0.615686 1.000000
0.000000 0.615686 1.000000
0.000000 0.615686 1.000000
0.000000 0.615686 1.000000
1.000000 0.552941 1.000000
1.000000 0.552941 1.000000
1.000000 0.552941 1.000000
1.000000 0.552941 1.000000
1.000000 0.552941 1.000000
1.000000 0.552941 1.000000
0.917647 0.552941 1.000000
0.823529 0.552941 1.000000
0.741176 0.552941 1.000000
0.670588 0.552941 1.000000
0.603922 0.552941 1.000000
0.549020 0.552941 1.000000
0.494118 0.552941 1.000000
0.439216 0.552941 1.000000
0.396078 0.552941 1.000000
0.356863 0.552941 1.000000
0.313725 0.552941 1.000000
0.274510 0.552941 1.000000
0.231373 0.552941 1.000000
0.203922 0.552941 1.000000
0.176471 0.552941 1.000000
0.137255 0.552941 1.000000
0.109804 0.552941 1.000000
0.082353 0.552941 1.000000
0.054902 0.552941 1.000000
0.027451 0.552941 1.000000
0.011765 0.552941 1.000000
0.000000 0.552941 1.000000
0.000000 0.552941 1.000000
0.000000 0.552941 1.000000
0.000000 0.552941 1.000000
0.000000 0.552941 1.000000
0.000000 0.552941 1.000000
1.000000 0.490196 1.000000
1.000000 0.490196 1.000000
1.000000 0.490196 1.000000
1.000000 0.490196 1.000000
1.000000 0.490196 1.000000
1.000000 0.490196 1.000000
0.917647 0.490196 1.000000
0.823529 0.490196 1.000000
0.741176 0.490196 1.000000
0.670588 0.490196 1.000000
0.603922 0.490196 1.000000
0.549020 0.490196 1.000000
0.494118 0.490196 1.000000
0.439216 0.490196 1.000000
0.396078 0.490196 1.000000
0.356863 0.490196 1.000000
0.313725 0.490196 1.000000
0.274510 0.490196 1.000000
0.231373 0.490196 1.000000
0.203922 0.490196 1.000000
0.176471 0.490196 1.000000
0.137255 0.490196 1.000000
0.109804 0.490196 1.000000
0.082353 0.490196 1.000000
0.054902 0.490196 1.000000
0.027451 0.490196 1.000000
0.011765 0.490196 1.000000
0.000000 0.490196 1.000000
0.000000 0.490196 1.000000
0.000000 0.490196 1.000000
0.000000 0.490196 1.000000
0.000000 0.490196 1.000000
0.000000 0.490196 1.000000
1.000000 0.427451 1.000000
1.000000 0.427451 1.000000
1.000000 0.427451 1.000000
1.000000 0.427451 1.000000
1.000000 0.427451 1.000000
1.000000 0.427451 1.000000
0.917647 0.427451 1.000000
0.823529 0.427451 1.000000
0.741176 0.427451 1.000000
0.670588 0.427451 1.000000
0.603922 0.427451 1.000000
0.549020 0.427451 1.000000
0.494118 0.427451 1.000000
0.439216 0.427451 1.000000
0.396078 0.427451 1.000000
0.356863 0.427451 1.000000
0.313725 0.427451 1.000000
0.274510 0.427451 1.000000
0.231373 0.427451 1.000000
0.203922 0.427451 1.000000
0.176471 0.427451 1.000000
0.137255 0.427451 1.000000
0.109804 0.427451 1.000000
0.082353 0.427451 1.000000
0.054902 0.427451 1.000000
0.027451 0.427451 1.000000
0.011765 0.427451 1.000000
0.000000 0.427451 1.000000
0.000000 0.427451 1.000000
0.000000 0.427451 1.000000
0.000000 0.427451 1.000000
0.000000 0.427451 1.000000
0.000000 0.427451 1.000000
1.000000 0.360784 1.000000
1.000000 0.360784 1.000000
1.000000 0.360784 1.000000
1.000000 0.360784 1.000000
1.000000 0.360784 1.000000
1.000000 0.360784 1.000000
0.917647 0.360784 1.000000
0.823529 0.360784 1.000000
0.741176 0.360784 1.000000
0.670588 0.360784 1.000000
0.603922 0.360784 1.000000
0.549020 0.360784 1.000000
0.494118 0.360784 1.000000
0.439216 0.360784 1.000000
0.396078 0.360784 1.000000
0.356863 0.360784 1.000000
0.313725 0.360784 1.000000
0.274510 0.360784 1.000000
0.231373 0.360784 1.000000
0.203922 0.360784 1.000000
0.176471 0.360784 1.000000
0.137255 0.360784 1.000000
0.109804 0.360784 1.000000
0.082353 0.360784 1.000000
0.054902 0.360784 1.000000
0.027451 0.360784 1.000000
0.011765 0.360784 1.000000
0.000000 0.360784 1.000000
0.000000 0.360784 1.000000
0.000000 0.360784 1.000000
0.000000 0.360784 1.000000
0.000000 0.360784 1.000000
0.000000 0.360784 1.000000
1.000000 0.298039 1.000000
1.000000 0.298039 1.000000
1.000000 0.298039 1.000000
1.000000 0.298039 1.000000
1.000000 0.298039 1.000000
1.000000 0.298039 1.000000
0.917647 0.298039 1.000000
0.823529 0.298039 1.000000
0.741176 0.298039 1.000000
0.670588 0.298039 1.000000
0.603922 0.298039 1.000000
0.549020 0.298039 1.000000
0.494118 0.298039 1.000000
0.439216 0.298039 1.000000
0.396078 0.298039 1.000000
0.356863 0.298039 1.000000
0.313725 0.298039 1.000000
0.274510 0.298039 1.000000
0.231373 0.298039 1.000000
0.203922 0.298039 1.000000
0.176471 0.298039 1.000000
0.137255 0.298039 1.000000
0.109804 0.298039 1.000000
0.082353 0.298039 1.000000
0.054902 0.298039 1.000000
0.027451 0.298039 1.000000
0.011765 0.298039 1.000000
0.000000 0.298039 1.000000
0.000000 0.298039 1.000000
0.000000 0.298039 1.000000
0.000000 0.298039 1.000000
0.000000 0.298039 1.000000
0.000000 0.298039 1.000000
1.000000 0.254902 1.000000
1.000000 0.254902 1.000000
1.000000 0.254902 1.000000
1.000000 0.254902 1.000000
1.000000 0.254902 1.000000
1.000000 0.254902 1.000000
0.917647 0.254902 1.000000
0.823529 0.254902 1.000000
0.741176 0.254902 1.000000
0.670588 0.254902 1.000000
0.603922 0.254902 1.000000
0.549020 0.254902 1.000000
0.494118 0.254902 1.000000
0.439216 0.254902 1.000000
0.396078 0.254902 1.000000
0.356863 0.254902 1.000000
0.313725 0.254902 1.000000
0.274510 0.254902 1.000000
0.231373 0.254902 1.000000
0.203922 0.254902 1.000000
0.176471 0.254902 1.000000
0.137255 0.254902 1.000000
0.109804 0.254902 1.000000
0.082353 0.254902 1.000000
0.054902 0.254902 1.000000
0.027451 0.254902 1.000000
0.011765 0.254902 1.000000
0.000000 0.254902 1.000000
0.000000 0.254902 1.000000
0.000000 0.254902 1.000000
0.000000 0.254902 1.000000
0.000000 0.254902 1.000000
0.000000 0.254902 1.000000
1.000000 0.211765 1.000000
1.000000 0.211765 1.000000
1.000000 0.211765 1.000000
1.000000 0.211765 1.000000
1.000000 0.211765 1.000000
1.000000 0.211765 1.000000
0.917647 0.211765 1.000000
0.823529 0.211765 1.000000
0.741176 0.211765 1.000000
0.670588 0.211765 1.000000
0.603922 0.211765 1.000000
0.549020 0.211765 1.000000
0.494118 0.211765 1.000000
0.439216 0.211765 1.000000
0.396078 0.211765 1.000000
0.356863 0.211765 1.000000
0.313725 0.211765 1.000000
0.274510 0.211765 1.000000
0.231373 0.211765 1.000000
0.203922 0.211765 1.000000
0.176471 0.211765 1.000000
0.137255 0.211765 1.000000
0.109804 0.211765 1.000000
0.082353 0.211765 1.000000
0.054902 0.211765 1.000000
0.027451 0.211765 1.000000
0.011765 0.211765 1.000000
0.000000 0.211765 1.000000
0.000000 0.211765 1.000000
0.000000 0.211765 1.000000
0.000000 0.211765 1.000000
0.000000 0.211765 1.000000
0.000000 0.211765 1.000000
1.000000 0.149020 1.000000
1.000000 0.149020 1.000000
1.000000 0.149020 1.000000
1.000000 0.149020 1.000000
1.000000 0.149020 1.000000
1.000000 0.149020 1.000000
0.917647 0.149020 1.000000
0.823529 0.149020 1.000000
0.741176 0.149020 1.000000
0.670588 0.149020 1.000000
0.603922 0.149020 1.000000
0.549020 0.149020 1.000000
0.494118 0.149020 1.000000
0.439216 0.149020 1.000000
0.396078 0.149020 1.000000
0.356863 0.149020 1.000000
0.313725 0.149020 1.000000
0.274510 0.149020 1.000000
0.231373 0.149020 1.000000
0.203922 0.149020 1.000000
0.176471 0.149020 1.000000
0.137255 0.149020 1.000000
0.109804 0.149020 1.000000
0.082353 0.149020 1.000000
0.054902 0.149020 1.000000
0.027451 0.149020 1.000000
0.011765 0.149020 1.000000
0.000000 0.149020 1.000000
0.000000 0.149020 1.000000
0.000000 0.149020 1.000000
0.000000 0.149020 1.000000
0.000000 0.149020 1.000000
0.000000 0.149020 1.000000
1.000000 0.105882 1.000000
1.000000 0.105882 1.000000
1.000000 0.105882 1.000000
1.000000 0.105882 1.000000
1.000000 0.105882 1.000000
1.000000 0.105882 1.000000
0.917647 0.105882 1.000000
0.823529 0.105882 1.000000
0.741176 0.105882 1.000000
0.670588 0.105882 1.000000
0.603922 0.105882 1.000000
0.549020 0.105882 1.000000
0.494118 0.105882 1.000000
0.439216 0.105882 1.000000
0.396078 0.105882 1.000000
0.356863 0.105882 1.000000
0.313725 0.105882 1.000000
0.274510 0.105882 1.000000
0.231373 0.105882 1.000000
0.203922 0.105882 1.000000
0.176471 0.105882 1.000000
0.137255 0.105882 1.000000
0.109804 0.105882 1.000000
0.082353 0.105882 1.000000
0.054902 0.105882 1.000000
0.027451 0.105882 1.000000
0.011765 0.105882 1.000000
0.000000 0.105882 1.000000
0.000000 0.105882 1.000000
0.000000 0.105882 1.000000
0.000000 0.105882 1.000000
0.000000 0.105882 1.000000
0.000000 0.105882 1.000000
1.000000 0.062745 1.000000
1.000000 0.062745 1.000000
1.000000 0.062745 1.000000
1.000000 0.062745 1.000000
1.000000 0.062745 1.000000
1.000000 0.062745 1.000000
0.917647 0.062745 1.000000
0.823529 0.062745 1.000000
0.741176 0.062745 1.000000
0.670588 0.062745 1.000000
0.603922 0.062745 1.000000
0.549020 0.062745 1.000000
0.494118 0.062745 1.000000
0.439216 0.062745 1.000000
0.396078 0.062745 1.000000
0.356863 0.062745 1.000000
0.313725 0.062745 1.000000
0.274510 0.062745 1.000000
0.231373 0.062745 1.000000
0.203922 0.062745 1.000000
0.176471 0.062745 1.000000
0.137255 0.062745 1.000000
0.109804 0.062745 1.000000
0.082353 0.062745 1.000000
0.054902 0.062745 1.000000
0.027451 0.062745 1.000000
0.011765 0.062745 1.000000
0.000000 0.062745 1.000000
0.000000 0.062745 1.000000
0.000000 0.062745 1.000000
0.000000 0.062745 1.000000
0.000000 0.062745 1.000000
0.000000 0.062745 1.000000
1.000000 0.019608 1.000000
1.000000 0.019608 1.000000
1.000000 0.019608 1.000000
1.000000 0.019608 1.000000
1.000000 0.019608 1.000000
1.000000 0.019608 1.000000
0.917647 0.019608 1.000000
0.823529 0.019608 1.000000
0.741176 0.019608 1.000000
0.670588 0.019608 1.000000
0.603922 0.019608 1.000000
0.549020 0.019608 1.000000
0.494118 0.019608 1.000000
0.439216 0.019608 1.000000
0.396078 0.019608 1.000000
0.356863 0.019608 1.000000
0.313725 0.019608 1.000000
0.274510 0.019608 1.000000
0.231373 0.019608 1.000000
0.203922 0.019608 1.000000
0.176471 0.019608 1.000000
0.137255 0.019608 1.000000
0.109804 0.019608 1.000000
0.082353 0.019608 1.000000
0.054902 0.019608 1.000000
0.027451 0.019608 1.000000
0.011765 0.019608 1.000000
0.000000 0.019608 1.000000
0.000000 0.019608 1.000000
0.000000 0.019608 1.000000
0.000000 0.019608 1.000000
0.000000 0.019608 1.000000
0.000000 0.019608 1.000000
1.000000 0.000000 1.000000
1.000000 0.000000 1.000000
1.000000 0.000000 1.000000
1.000000 0.000000 1.000000
1.000000 0.000000 1.000000
1.000000 0.000000 1.000000
0.917647 0.000000 1.000000
0.823529 0.000000 1.000000
0.741176 0.000000 1.000000
0.670588 0.000000 1.000000
0.603922 0.000000 1.000000
0.549020 0.000000 1.000000
0.494118 0.000000 1.000000
0.439216 0.000000 1.000000
0.396078 0.000000 1.000000
0.356863 0.000000 1.000000
0.313725 0.000000 1.000000
0.274510 0.000000 1.000000
0.231373 0.000000 1.000000
0.203922 0.000000 1.000000
0.176471 0.000000 1.000000
0.137255 0.000000 1.000000
0.109804 0.000000 1.000000
0.082353 0.000000 1.000000
0.054902 0.000000 1.000000
0.027451 0.000000 1.000000
0.011765 0.000000 1.000000
0.000000 0.000000 1.000000
0.000000 0.000000 1.000000
0.000000 0.000000 1.000000
0.000000 0.000000 1.000000
0.000000 0.000000 1.000000
0.000000 0.000000 1.000000
1.000000 0.000000 1.000000
1.000000 0.000000 1.000000
1.000000 0.000000 1.000000
1.000000 0.000000 1.000000
1.000000 0.000000 1.000000
1.000000 0.000000 1.000000
0.917647 0.000000 1.000000
0.823529 0.000000 1.000000
0.741176 0.000000 1.000000
0.670588 0.000000 1.000000
0.603922 0.000000 1.000000
0.549020 0.000000 1.000000
0.494118 0.000000 1.000000
0.439216 0.000000 1.000000
0.396078 0.000000 1.000000
0.356863 0.000000 1.000000
0.313725 0.000000 1.000000
0.274510 0.000000 1.000000
0.231373 0.000000 1.000000
0.203922 0.000000 1.000000
0.176471 0.000000 1.000000
0.137255 0.000000 1.000000
0.109804 0.000000 1.000000
0.082353 0.000000 1.000000
0.054902 0.000000 1.000000
0.027451 0.000000 1.000000
0.011765 0.000000 1.000000
0.000000 0.000000 1.000000
0.000000 0.000000 1.000000
0.000000 0.000000 1.000000
