server/data/luts/film-lab-export_4_.cube
LUT_3D_SIZE 5
1.000000 1.000000 1.000000
0.741176 1.000000 1.000000
0.313725 1.000000 1.000000
0.054902 1.000000 1.000000
0.000000 1.000000 1.000000
1.000000 1.000000 1.000000
0.741176 1.000000 1.000000
0.313725 1.000000 1.000000
0.054902 1.000000 1.000000
0.000000 1.000000 1.000000
1.000000 0.427451 1.000000
0.741176 0.427451 1.000000
0.313725 0.427451 1.000000
0.054902 0.427451 1.000000
0.000000 0.427451 1.000000
1.000000 0.019608 1.000000
0.741176 0.019608 1.000000
0.313725 0.019608 1.000000
0.054902 0.019608 1.000000
0.000000 0.019608 1.000000
1.000000 0.000000 1.000000
0.741176 0.000000 1.000000
0.313725 0.000000 1.000000
0.054902 0.000000 1.000000
0.000000 0.000000 1.000000
1.000000 1.000000 0.850980
0.741176 1.000000 0.850980
0.313725 1.000000 0.850980
0.054902 1.000000 0.850980
0.000000 1.000000 0.850980
1.000000 1.000000 0.850980
0.741176 1.000000 0.850980
0.313725 1.000000 0.850980
0.054902 1.000000 0.850980
0.000000 1.000000 0.850980
1.000000 0.427451 0.850980
0.741176 0.427451 0.850980
0.313725 0.427451 0.850980
0.054902 0.427451 0.850980
0.000000 0.427451 0.850980
1.000000 0.019608 0.850980
0.741176 0.019608 0.850980
0.313725 0.019608 0.850980
0.054902 0.019608 0.850980
0.000000 0.019608 0.850980
1.000000 0.000000 0.850980
0.741176 0.000000 0.850980
0.313725 0.000000 0.850980
0.054902 0.000000 0.850980
0.000000 0.000000 0.850980
1.000000 1.000000 0.372549
0.741176 1.000000 0.372549
0.313725 1.000000 0.372549
0.054902 1.000000 0.372549
0.000000 1.000000 0.372549
1.000000 1.000000 0.372549
0.741176 1.000000 0.372549
0.313725 1.000000 0.372549
0.054902 1.000000 0.372549
0.000000 1.000000 0.372549
1.000000 0.427451 0.372549
0.741176 0.427451 0.372549
0.313725 0.427451 0.372549
0.054902 0.427451 0.372549
0.000000 0.427451 0.372549
1.000000 0.019608 0.372549
0.741176 0.019608 0.372549
0.313725 0.019608 0.372549
0.054902 0.019608 0.372549
0.000000 0.019608 0.372549
1.000000 0.000000 0.372549
0.741176 0.000000 0.372549
0.313725 0.000000 0.372549
0.054902 0.000000 0.372549
0.000000 0.000000 0.372549
1.000000 1.000000 0.090196
0.741176 1.000000 0.090196
0.313725 1.000000 0.090196
0.054902 1.000000 0.090196
0.000000 1.000000 0.090196
1.000000 1.000000 0.090196
0.741176 1.000000 0.090196
0.313725 1.000000 0.090196
0.054902 1.000000 0.090196
0.000000 1.000000 0.090196
1.000000 0.427451 0.090196
0.741176 0.427451 0.090196
0.313725 0.427451 0.090196
0.054902 0.427451 0.090196
0.000000 0.427451 0.090196
1.000000 0.019608 0.090196
0.741176 0.019608 0.090196
0.313725 0.019608 0.090196
0.054902 0.019608 0.090196
0.000000 0.019608 0.090196
1.000000 0.000000 0.090196
0.741176 0.000000 0.090196
0.313725 0.000000 0.090196
0.054902 0.000000 0.090196
0.000000 0.000000 0.090196
1.000000 1.000000 0.000000
0.741176 1.000000 0.000000
0.313725 1.000000 0.000000
0.054902 1.000000 0.000000
0.000000 1.000000 0.000000
1.000000 1.000000 0.000000
0.741176 1.000000 0.000000
0.313725 1.000000 0.000000
0.054902 1.000000 0.000000
0.000000 1.000000 0.000000
1.000000 0.427451 0.000000
0.741176 0.427451 0.000000
0.313725 0.427451 0.000000
0.054902 0.427451 0.000000
0.000000 0.427451 0.000000
1.000000 0.019608 0.000000
0.741176 0.019608 0.000000
0.313725 0.019608 0.000000
0.054902 0.019608 0.000000
0.000000 0.019608 0.000000
1.000000 0.000000 0.000000
0.741176 0.000000 0.000000
0.313725 0.000000 0.000000
0.054902 0.000000 0.000000
0.000000 0.000000 0.000000
