tools/invertPheonix.cube
TITLE "Inverted LUT"
LUT_3D_SIZE 5
DOMAIN_MIN 0.000000 0.000000 0.000000
DOMAIN_MAX 1.000000 1.000000 1.000000
0.000000 0.000000 0.000000
0.250000 0.000000 0.000000
0.568576 0.000000 0.000000
0.457899 0.000111 0.000222
1.000000 0.000000 0.000000
0.000000 0.250000 0.000000
0.250000 0.250000 0.000000
0.568576 0.250000 0.000000
0.457899 0.250486 0.000486
1.000000 0.250000 0.000000
0.000444 0.571181 0.004108
0.249806 0.571181 0.000194
0.568576 0.571181 0.000000
0.457899 0.571181 0.000111
1.000000 0.571181 0.000167
0.000000 0.750000 0.000000
0.250000 0.750000 0.000000
0.568576 0.750056 0.000000
0.457899 0.750000 0.000056
1.000000 0.750000 0.000000
0.000000 1.000000 0.000000
0.250000 1.000000 0.000000
0.568576 1.000000 0.000000
0.457899 1.000000 0.000056
1.000000 1.000000 0.000000
0.000000 0.000000 0.250000
0.250000 0.000000 0.250000
0.568576 0.000000 0.250000
0.457899 0.000000 0.249806
1.000000 0.000000 0.250000
0.000000 0.250000 0.250000
0.250000 0.250000 0.250000
0.568576 0.249833 0.250250
0.457899 0.249667 0.250500
1.000000 0.250000 0.250000
0.000486 0.571181 0.250097
0.250000 0.571181 0.250083
0.568576 0.571181 0.250000
0.457899 0.571181 0.249875
1.000000 0.571181 0.250000
0.000000 0.750000 0.250000
0.250000 0.750000 0.250000
0.568576 0.750416 0.250042
0.457899 0.750167 0.250125
1.000000 0.750000 0.250000
0.000000 1.000000 0.250000
0.250000 1.000000 0.250000
0.568576 0.999875 0.250083
0.457899 1.000000 0.250000
1.000000 1.000000 0.250000
0.000000 0.000000 0.634673
0.249806 0.000000 0.634673
0.568576 0.000999 0.634673
0.457899 0.000000 0.634673
0.999667 0.000167 0.634673
0.000194 0.249903 0.634673
0.250083 0.250083 0.634673
0.568576 0.250000 0.634673
0.457899 0.250333 0.634673
0.999584 0.250250 0.634673
0.000000 0.571181 0.634673
0.250000 0.571181 0.634673
0.568576 0.571181 0.634673
0.457899 0.571181 0.634673
1.000000 0.571181 0.634673
0.000888 0.749889 0.634673
0.249833 0.750416 0.634673
0.568576 0.750000 0.634673
0.457899 0.750000 0.634673
1.000000 0.750000 0.634673
0.000444 0.999833 0.634673
0.250042 0.999917 0.634673
0.568576 1.000000 0.634673
0.457899 1.000000 0.634673
1.000000 1.000000 0.634673
0.000333 0.000222 0.535342
0.250000 0.000194 0.535342
0.568576 0.000000 0.535342
0.457899 0.000278 0.535342
1.000000 0.000000 0.535342
0.000194 0.250000 0.535342
0.250000 0.250000 0.535342
0.568576 0.249792 0.535342
0.457899 0.250375 0.535342
1.000000 0.250000 0.535342
0.000111 0.571181 0.535342
0.249958 0.571181 0.535342
0.568576 0.571181 0.535342
0.457899 0.571181 0.535342
1.000000 0.571181 0.535342
0.000056 0.750000 0.535342
0.250000 0.750000 0.535342
0.568576 0.750000 0.535342
0.457899 0.750000 0.535342
1.000000 0.750000 0.535342
0.000389 1.000000 0.535342
0.250000 1.000000 0.535342
0.568576 1.000000 0.535342
0.457899 1.000000 0.535342
1.000000 1.000000 0.535342
0.000000 0.000000 1.000000
0.250000 0.000000 1.000000
0.568576 0.000000 1.000000
0.457899 0.000444 1.000000
1.000000 0.000000 1.000000
0.000000 0.250000 1.000000
0.250000 0.250000 1.000000
0.568576 0.250083 0.999917
0.457899 0.250000 1.000000
1.000000 0.250000 1.000000
0.000000 0.571181 1.000000
0.250000 0.571181 1.000000
0.568576 0.571181 1.000000
0.457899 0.571181 1.000000
1.000000 0.571181 1.000000
0.000000 0.750000 1.000000
0.250000 0.750000 1.000000
0.568576 0.750000 1.000000
0.457899 0.750000 1.000000
1.000000 0.750000 1.000000
0.000000 1.000000 1.000000
0.250000 1.000000 1.000000
0.568576 1.000000 1.000000
0.457899 1.000000 1.000000
1.000000 1.000000 1.000000
