tools/invertPheonix.cube
TITLE "Inverted LUT"
LUT_3D_SIZE 33
DOMAIN_MIN 0.000000 0.000000 0.000000
DOMAIN_MAX 1.000000 1.000000 1.000000
0.000000 0.000000 0.000000
0.031250 0.000000 0.000000
0.062500 0.000000 0.000000
0.093750 0.000000 0.000000
0.125000 0.000000 0.000000
0.156250 0.000000 0.000000
0.187500 0.000000 0.000000
0.218750 0.000000 0.000000
0.250000 0.000000 0.000000
0.281250 0.000000 0.000000
0.312500 0.000000 0.000000
1.000000 0.000000 0.000000
0.623915 0.000666 0.000222
0.610080 0.000000 0.000000
0.596246 0.001110 0.001110
0.582411 0.000222 0.000888
0.568576 0.000000 0.000000
0.554742 0.000000 0.001554
0.540907 0.000000 0.000000
0.527073 0.000000 0.000000
0.513238 0.000000 0.001332
0.499403 0.000000 0.000000
0.485569 0.000111 0.000777
0.471734 0.000333 0.000000
0.457899 0.000111 0.000222
0.226654 0.000000 0.000000
0.000000 0.000000 0.000000
0.843750 0.000000 0.000000
0.875000 0.000000 0.000000
0.906250 0.000000 0.000000
0.937500 0.000000 0.000000
0.968750 0.000000 0.000000
1.000000 0.000000 0.000000
0.000000 0.031250 0.000000
0.031250 0.031250 0.000000
0.062500 0.031250 0.000000
0.093750 0.031250 0.000000
0.125000 0.031250 0.000000
0.156250 0.031250 0.000000
0.187500 0.031250 0.000000
0.218750 0.031250 0.000000
0.250000 0.031250 0.000000
0.281250 0.031250 0.000000
0.312500 0.031250 0.000000
1.000000 0.031250 0.000000
0.623915 0.031250 0.000000
0.610080 0.031031 0.000328
0.596246 0.032124 0.000000
0.582411 0.031359 0.000000
0.568576 0.031031 0.000546
0.554742 0.031141 0.000000
0.540907 0.031469 0.000000
0.527073 0.031031 0.000219
0.513238 0.031250 0.000219
0.499403 0.031250 0.000000
0.485569 0.031469 0.000219
0.471734 0.032234 0.000000
0.457899 0.031250 0.000000
0.226654 0.031250 0.000000
0.000000 0.031250 0.000000
0.843750 0.031250 0.000000
0.875000 0.031250 0.000000
0.906250 0.031250 0.000000
0.937500 0.031250 0.000000
0.968750 0.031250 0.000000
1.000000 0.031250 0.000000
0.000000 0.062500 0.000000
0.031250 0.062500 0.000000
0.062500 0.062500 0.000000
0.093750 0.062500 0.000000
0.125000 0.062500 0.000000
0.156250 0.062500 0.000000
0.187500 0.062500 0.000000
0.218750 0.062500 0.000000
0.250000 0.062500 0.000000
0.281250 0.062500 0.000000
0.312500 0.062500 0.000000
1.000000 0.062500 0.000000
0.623915 0.062500 0.000000
0.610080 0.062500 0.000430
0.596246 0.062823 0.000000
0.582411 0.062500 0.000108
0.568576 0.062500 0.000108
0.554742 0.062177 0.000000
0.540907 0.062608 0.000215
0.527073 0.062500 0.000215
0.513238 0.063038 0.000000
0.499403 0.062500 0.000000
0.485569 0.062500 0.000215
0.471734 0.062177 0.001613
0.457899 0.062392 0.000000
0.226654 0.062500 0.000000
0.000000 0.062500 0.000000
0.843750 0.062500 0.000000
0.875000 0.062500 0.000000
0.906250 0.062500 0.000000
0.937500 0.062500 0.000000
0.968750 0.062500 0.000000
1.000000 0.062500 0.000000
0.000000 0.093750 0.000000
0.031250 0.093750 0.000000
0.062500 0.093750 0.000000
0.093750 0.093750 0.000000
0.125000 0.093750 0.000000
0.156250 0.093750 0.000000
0.187500 0.093750 0.000000
0.218750 0.093750 0.000000
0.250000 0.093750 0.000000
0.281250 0.093750 0.000000
0.312500 0.093750 0.000000
1.000000 0.093750 0.000000
0.623915 0.094491 0.000212
0.610080 0.093750 0.000212
0.596246 0.094173 0.000635
0.582411 0.091951 0.000529
0.568576 0.093750 0.000000
0.554742 0.093644 0.000106
0.540907 0.093750 0.000000
0.527073 0.093750 0.000212
0.513238 0.093750 0.000212
0.499403 0.093750 0.000000
0.485569 0.094173 0.000952
0.471734 0.093856 0.000000
0.457899 0.093750 0.000212
0.226654 0.093750 0.000000
0.000000 0.093750 0.000000
0.843750 0.093750 0.000000
0.875000 0.093750 0.000000
0.906250 0.093750 0.000000
0.937500 0.093750 0.000000
0.968750 0.093750 0.000000
1.000000 0.093750 0.000000
0.000000 0.125000 0.000000
0.031250 0.125000 0.000000
0.062500 0.125000 0.000000
0.093750 0.125000 0.000000
0.125000 0.125000 0.000000
0.156250 0.125000 0.000000
0.187500 0.125000 0.000000
0.218750 0.125000 0.000000
0.250000 0.125000 0.000000
0.281250 0.125000 0.000000
0.312500 0.125000 0.000000
1.000000 0.125000 0.000000
0.623915 0.125000 0.000000
0.610080 0.125000 0.000208
0.596246 0.125104 0.000208
0.582411 0.124688 0.000416
0.568576 0.125000 0.000000
0.554742 0.125104 0.000000
0.540907 0.125000 0.000000
0.527073 0.125104 0.000208
0.513238 0.125000 0.000208
0.499403 0.125000 0.000000
0.485569 0.125000 0.000208
0.471734 0.125000 0.000208
0.457899 0.124896 0.000104
0.226654 0.125000 0.000000
0.000000 0.125000 0.000000
0.843750 0.125000 0.000000
0.875000 0.125000 0.000000
0.906250 0.125000 0.000000
0.937500 0.125000 0.000000
0.968750 0.125000 0.000000
1.000000 0.125000 0.000000
0.000000 0.156250 0.000000
0.031250 0.156250 0.000000
0.062500 0.156250 0.000000
0.093750 0.156250 0.000000
0.125000 0.156250 0.000000
0.156250 0.156250 0.000000
0.187500 0.156250 0.000000
0.218750 0.156250 0.000000
0.250000 0.156250 0.000000
0.281250 0.156250 0.000000
0.312500 0.156250 0.000000
1.000000 0.156250 0.000000
0.623915 0.156250 0.000000
0.610080 0.156762 0.000307
0.596246 0.156762 0.000716
0.582411 0.156659 0.000409
0.568576 0.156250 0.000000
0.554742 0.156250 0.000205
0.540907 0.155738 0.000512
0.527073 0.156250 0.000000
0.513238 0.156250 0.000205
0.499403 0.156250 0.000000
0.485569 0.156762 0.000512
0.471734 0.155636 0.000102
0.457899 0.156864 0.000000
0.226654 0.156250 0.000000
0.000000 0.156250 0.000000
0.843750 0.156250 0.000000
0.875000 0.156250 0.000000
0.906250 0.156250 0.000000
0.937500 0.156250 0.000000
0.968750 0.156250 0.000000
1.000000 0.156250 0.000000
0.000000 0.187500 0.000000
0.031250 0.187500 0.000000
0.062500 0.187500 0.000000
0.093750 0.187500 0.000000
0.125000 0.187500 0.000000
0.156250 0.187500 0.000000
0.187500 0.187500 0.000000
0.218750 0.187500 0.000000
0.250000 0.187500 0.000000
0.281250 0.187500 0.000000
0.312500 0.187500 0.000000
1.000000 0.187500 0.000000
0.623915 0.187500 0.000000
0.610080 0.187500 0.000000
0.596246 0.188808 0.000503
0.582411 0.187902 0.000101
0.568576 0.187500 0.000000
0.554742 0.187500 0.000201
0.540907 0.187500 0.000101
0.527073 0.187500 0.000201
0.513238 0.187500 0.000201
0.499403 0.187500 0.000000
0.485569 0.187500 0.000201
0.471734 0.187098 0.000101
0.457899 0.187802 0.000000
0.226654 0.187500 0.000000
0.000000 0.187500 0.000000
0.843750 0.187500 0.000000
0.875000 0.187500 0.000000
0.906250 0.187500 0.000000
0.937500 0.187500 0.000000
0.968750 0.187500 0.000000
1.000000 0.187500 0.000000
0.000000 0.218750 0.000000
0.031250 0.218750 0.000000
0.062500 0.218750 0.000000
0.093750 0.218750 0.000000
0.125000 0.218750 0.000000
0.156250 0.218750 0.000000
0.187500 0.218750 0.000000
0.218750 0.218750 0.000000
0.250000 0.218750 0.000000
0.281250 0.218750 0.000000
0.312500 0.218750 0.000000
1.000000 0.218750 0.000000
0.623915 0.218750 0.000000
0.610080 0.218750 0.000198
0.596246 0.218750 0.001483
0.582411 0.218354 0.000791
0.568576 0.218750 0.000000
0.554742 0.219146 0.000297
0.540907 0.219244 0.000692
0.527073 0.218552 0.000198
0.513238 0.218750 0.000198
0.499403 0.218750 0.000000
0.485569 0.218750 0.000198
0.471734 0.218651 0.000000
0.457899 0.218453 0.000000
0.226654 0.218750 0.000000
0.000000 0.218750 0.000000
0.843750 0.218750 0.000000
0.875000 0.218750 0.000000
0.906250 0.218750 0.000000
0.937500 0.218750 0.000000
0.968750 0.218750 0.000000
1.000000 0.218750 0.000000
0.000000 0.250000 0.000000
0.031250 0.250000 0.000000
0.062500 0.250000 0.000000
0.093750 0.250000 0.000000
0.125000 0.250000 0.000000
0.156250 0.250000 0.000000
0.187500 0.250000 0.000000
0.218750 0.250000 0.000000
0.250000 0.250000 0.000000
0.281250 0.250000 0.000000
0.312500 0.250000 0.000000
1.000000 0.250000 0.000000
0.623915 0.249903 0.000000
0.610080 0.250097 0.000000
0.596246 0.250097 0.000000
0.582411 0.250389 0.000000
0.568576 0.250000 0.000000
0.554742 0.250000 0.000194
0.540907 0.249903 0.001554
0.527073 0.250097 0.000000
0.513238 0.250097 0.000000
0.499403 0.250000 0.000000
0.485569 0.249903 0.001651
0.471734 0.250000 0.000194
0.457899 0.250486 0.000486
0.226654 0.250000 0.000000
0.000000 0.250000 0.000000
0.843750 0.250000 0.000000
0.875000 0.250000 0.000000
0.906250 0.250000 0.000000
0.937500 0.250000 0.000000
0.968750 0.250000 0.000000
1.000000 0.250000 0.000000
0.000000 0.281250 0.000000
0.031250 0.281250 0.000000
0.062500 0.281250 0.000000
0.093750 0.281250 0.000000
0.125000 0.281250 0.000000
0.156250 0.281250 0.000000
0.187500 0.281250 0.000000
0.218750 0.281250 0.000000
0.250000 0.281250 0.000000
0.281250 0.281250 0.000000
0.312500 0.281250 0.000000
1.000000 0.281250 0.000000
0.623915 0.281250 0.000000
0.610080 0.281345 0.000000
0.596246 0.280964 0.000000
0.582411 0.281250 0.000191
0.568576 0.281345 0.000000
0.554742 0.281250 0.000191
0.540907 0.281250 0.000191
0.527073 0.280868 0.000191
0.513238 0.281345 0.000000
0.499403 0.281250 0.000000
0.485569 0.281345 0.000000
0.471734 0.280678 0.000286
0.457899 0.281155 0.000095
0.226654 0.281250 0.000000
0.000000 0.281250 0.000000
0.843750 0.281250 0.000000
0.875000 0.281250 0.000000
0.906250 0.281250 0.000000
0.937500 0.281250 0.000000
0.968750 0.281250 0.000000
1.000000 0.281250 0.000000
0.000000 0.312500 0.000000
0.031250 0.312500 0.000000
0.062500 0.312500 0.000000
0.093750 0.312500 0.000000
0.125000 0.312500 0.000000
0.156250 0.312500 0.000000
0.187500 0.312500 0.000000
0.218750 0.312500 0.000000
0.250000 0.312500 0.000000
0.281250 0.312500 0.000000
0.312500 0.312500 0.000000
1.000000 0.312500 0.000000
0.623915 0.312406 0.000094
0.610080 0.312594 0.000000
0.596246 0.312594 0.000000
0.582411 0.312594 0.000000
0.568576 0.311938 0.001218
0.554742 0.312406 0.000187
0.540907 0.312500 0.000187
0.527073 0.312500 0.000187
0.513238 0.312500 0.000187
0.499403 0.312500 0.000000
0.485569 0.312500 0.000000
0.471734 0.312500 0.000187
0.457899 0.312687 0.000000
0.226654 0.312500 0.000000
0.000000 0.312500 0.000000
0.843750 0.312500 0.000000
0.875000 0.312500 0.000000
0.906250 0.312500 0.000000
0.937500 0.312500 0.000000
0.968750 0.312500 0.000000
1.000000 0.312500 0.000000
0.000000 0.343750 0.000000
0.031250 0.343750 0.000000
0.062500 0.343750 0.000000
0.093750 0.343750 0.000000
0.125000 0.343750 0.000000
0.156250 0.343750 0.000000
0.187500 0.343750 0.000000
0.218750 0.343750 0.000000
0.250000 0.343750 0.000000
0.281250 0.343750 0.000000
0.312500 0.343750 0.000000
1.000000 0.343750 0.000000
0.623915 0.343750 0.000000
0.610080 0.344394 0.000460
0.596246 0.343474 0.001011
0.582411 0.343474 0.000000
0.568576 0.343842 0.000000
0.554742 0.343842 0.000184
0.540907 0.343750 0.000184
0.527073 0.343750 0.000184
0.513238 0.343842 0.000184
0.499403 0.343750 0.000000
0.485569 0.343106 0.000460
0.471734 0.343658 0.000092
0.457899 0.344026 0.000000
0.226654 0.343750 0.000000
0.000000 0.343750 0.000000
0.843750 0.343750 0.000000
0.875000 0.343750 0.000000
0.906250 0.343750 0.000000
0.937500 0.343750 0.000000
0.968750 0.343750 0.000000
1.000000 0.343750 0.000000
0.000000 0.375000 0.000000
0.031250 0.375000 0.000000
0.062500 0.375000 0.000000
0.093750 0.375000 0.000000
0.125000 0.375000 0.000000
0.156250 0.375000 0.000000
0.187500 0.375000 0.000000
0.218750 0.375000 0.000000
0.250000 0.375000 0.000000
0.281250 0.375000 0.000000
0.312500 0.375000 0.000000
1.000000 0.375000 0.000000
0.623915 0.375000 0.000180
0.610080 0.375271 0.000000
0.596246 0.375090 0.000000
0.582411 0.375361 0.000180
0.568576 0.375090 0.000000
0.554742 0.375000 0.000180
0.540907 0.375000 0.000090
0.527073 0.374910 0.000180
0.513238 0.374820 0.000000
0.499403 0.375000 0.000000
0.485569 0.375000 0.000180
0.471734 0.375271 0.000361
0.457899 0.375000 0.000000
0.226654 0.375000 0.000000
0.000000 0.375000 0.000000
0.843750 0.375000 0.000000
0.875000 0.375000 0.000000
0.906250 0.375000 0.000000
0.937500 0.375000 0.000000
0.968750 0.375000 0.000000
1.000000 0.375000 0.000000
0.000000 1.000000 0.000000
0.031250 1.000000 0.000000
0.062500 1.000000 0.000000
0.093750 1.000000 0.000000
0.125000 1.000000 0.000000
0.156250 1.000000 0.000000
0.187500 1.000000 0.000000
0.218750 1.000000 0.000000
0.250000 1.000000 0.000000
0.281250 1.000000 0.000000
0.312500 1.000000 0.000000
1.000000 1.000000 0.000000
0.623915 0.999889 0.000111
0.610080 1.000000 0.000000
0.596246 1.000000 0.000056
0.582411 0.999722 0.000000
0.568576 1.000000 0.000000
0.554742 1.000000 0.000167
0.540907 0.999889 0.000056
0.527073 0.999889 0.000111
0.513238 1.000000 0.000111
0.499403 1.000000 0.000000
0.485569 1.000000 0.000000
0.471734 0.999889 0.000222
0.457899 1.000000 0.000056
0.226654 1.000000 0.000000
0.000000 1.000000 0.000000
0.843750 1.000000 0.000000
0.875000 1.000000 0.000000
0.906250 1.000000 0.000000
0.937500 1.000000 0.000000
0.968750 1.000000 0.000000
1.000000 1.000000 0.000000
0.000000 0.589627 0.000111
0.030704 0.589627 0.000546
0.062070 0.589627 0.001506
0.093644 0.589627 0.000212
0.124792 0.589627 0.000208
0.155841 0.589627 0.000614
0.187299 0.589627 0.000402
0.219541 0.589627 0.000198
0.250194 0.589627 0.000000
0.281250 0.589627 0.000000
0.312500 0.589627 0.000000
1.000000 0.589627 0.000000
0.623915 0.589627 0.000056
0.610080 0.589627 0.000000
0.596246 0.589627 0.000222
0.582411 0.589627 0.000555
0.568576 0.589627 0.000000
0.554742 0.589627 0.000056
0.540907 0.589627 0.000000
0.527073 0.589627 0.000111
0.513238 0.589627 0.000278
0.499403 0.589627 0.000000
0.485569 0.589627 0.000000
0.471734 0.589627 0.000000
0.457899 0.589627 0.000000
0.226451 0.589627 0.000000
0.000725 0.589627 0.000198
0.843750 0.589627 0.000000
0.875000 0.589627 0.000000
0.906250 0.589627 0.000000
0.937500 0.589627 0.000000
0.968750 0.589627 0.000000
1.000000 0.589627 0.000000
0.000444 0.580404 0.000555
0.031578 0.580404 0.000000
0.062392 0.580404 0.000108
0.093644 0.580404 0.000000
0.124480 0.580404 0.000208
0.155329 0.580404 0.000716
0.188607 0.580404 0.000402
0.218453 0.580404 0.000000
0.249806 0.580404 0.000389
0.281059 0.580404 0.000000
0.312313 0.580404 0.000468
0.999722 0.580404 0.000056
0.623915 0.580404 0.000000
0.610080 0.580404 0.000389
0.596246 0.580404 0.000000
0.582411 0.580404 0.000111
0.568576 0.580404 0.000000
0.554742 0.580404 0.000111
0.540907 0.580404 0.000833
0.527073 0.580404 0.000111
0.513238 0.580404 0.000111
0.499403 0.580404 0.000000
0.485569 0.580404 0.000000
0.471734 0.580404 0.000222
0.457899 0.580404 0.000000
0.226587 0.580404 0.000000
0.000527 0.580404 0.000396
0.843583 0.580404 0.000389
0.874833 0.580404 0.000389
0.906083 0.580404 0.000389
0.937333 0.580404 0.000389
0.968583 0.580404 0.000389
0.999722 0.580404 0.000056
0.000444 0.571181 0.004108
0.031359 0.571181 0.000328
0.062285 0.571181 0.000430
0.093538 0.571181 0.000106
0.125000 0.571181 0.000104
0.155841 0.571181 0.000000
0.187500 0.571181 0.000000
0.218750 0.571181 0.000198
0.249806 0.571181 0.000194
0.281059 0.571181 0.000000
0.312500 0.571181 0.000000
1.000000 0.571181 0.000167
0.623915 0.571181 0.000000
0.610080 0.571181 0.000000
0.596246 0.571181 0.000111
0.582411 0.571181 0.000000
0.568576 0.571181 0.000000
0.554742 0.571181 0.000000
0.540907 0.571181 0.000000
0.527073 0.571181 0.000222
0.513238 0.571181 0.000555
0.499403 0.571181 0.000000
0.485569 0.571181 0.000555
0.471734 0.571181 0.000389
0.457899 0.571181 0.000111
0.226519 0.571181 0.000203
0.000000 0.571181 0.000066
0.843750 0.571181 0.000222
0.875000 0.571181 0.000222
0.906250 0.571181 0.000222
0.937500 0.571181 0.000222
0.968750 0.571181 0.000222
1.000000 0.571181 0.000167
0.000000 0.561958 0.000000
0.031250 0.561958 0.000000
0.062500 0.561958 0.000000
0.093750 0.561958 0.000000
0.125000 0.561958 0.000000
0.156250 0.561958 0.000000
0.187500 0.561958 0.000000
0.218750 0.561958 0.000000
0.250000 0.561958 0.000000
0.281250 0.561958 0.000000
0.312500 0.561958 0.000000
1.000000 0.561958 0.000000
0.623915 0.561958 0.000333
0.610080 0.561958 0.000389
0.596246 0.561958 0.000222
0.582411 0.561958 0.000000
0.568576 0.561958 0.000278
0.554742 0.561958 0.000056
0.540907 0.561958 0.000000
0.527073 0.561958 0.000000
0.513238 0.561958 0.000111
0.499403 0.561958 0.000111
0.485569 0.561958 0.000666
0.471734 0.561958 0.000111
0.457899 0.561958 0.000056
0.226790 0.561958 0.000609
0.000000 0.561958 0.000000
0.843750 0.561958 0.000000
0.875000 0.561958 0.000000
0.906250 0.561958 0.000000
0.937500 0.561958 0.000000
0.968750 0.561958 0.000000
1.000000 0.561958 0.000000
0.000222 0.552734 0.000222
0.032452 0.552734 0.000000
0.062392 0.552734 0.000000
0.093433 0.552734 0.000317
0.125000 0.552734 0.000104
0.156250 0.552734 0.000102
0.187098 0.552734 0.000201
0.218750 0.552734 0.000198
0.250000 0.552734 0.000194
0.281250 0.552734 0.000191
0.313156 0.552734 0.000000
1.000000 0.552734 0.000111
0.623915 0.552734 0.000167
0.610080 0.552734 0.000000
0.596246 0.552734 0.000222
0.582411 0.552734 0.000167
0.568576 0.552734 0.000666
0.554742 0.552734 0.000000
0.540907 0.552734 0.000111
0.527073 0.552734 0.000000
0.513238 0.552734 0.001277
0.499403 0.552734 0.000111
0.485569 0.552734 0.000111
0.471734 0.552734 0.000111
0.457899 0.552734 0.000000
0.226451 0.552734 0.000135
0.000132 0.552734 0.000000
0.843750 0.552734 0.000111
0.875000 0.552734 0.000111
0.906250 0.552734 0.000111
0.937500 0.552734 0.000111
0.968750 0.552734 0.000111
1.000000 0.552734 0.000111
0.000000 0.543511 0.000222
0.030157 0.543511 0.000437
0.062500 0.543511 0.000108
0.093221 0.543511 0.001376
0.125000 0.543511 0.000208
0.156250 0.543511 0.000000
0.187500 0.543511 0.000000
0.218750 0.543511 0.000198
0.249903 0.543511 0.000389
0.281059 0.543511 0.000286
0.312500 0.543511 0.000000
0.999389 0.543511 0.000111
0.623915 0.543511 0.000111
0.610080 0.543511 0.000000
0.596246 0.543511 0.000167
0.582411 0.543511 0.000000
0.568576 0.543511 0.000500
0.554742 0.543511 0.000389
0.540907 0.543511 0.000056
0.527073 0.543511 0.000000
0.513238 0.543511 0.000167
0.499403 0.543511 0.000000
0.485569 0.543511 0.000111
0.471734 0.543511 0.001221
0.457899 0.543511 0.000389
0.226925 0.543511 0.000947
0.000330 0.543511 0.000066
0.843750 0.543511 0.000111
0.875000 0.543511 0.000111
0.906250 0.543511 0.000111
0.937500 0.543511 0.000111
0.968750 0.543511 0.000111
0.999389 0.543511 0.000111
0.000000 0.534288 0.000000
0.031250 0.534288 0.000000
0.062500 0.534288 0.000000
0.093750 0.534288 0.000000
0.125000 0.534288 0.000000
0.156250 0.534288 0.000000
0.187500 0.534288 0.000000
0.218750 0.534288 0.000000
0.250000 0.534288 0.000000
0.281250 0.534288 0.000000
0.312500 0.534288 0.000000
1.000000 0.534288 0.000000
0.623915 0.534288 0.000000
0.610080 0.534288 0.000444
0.596246 0.534288 0.000111
0.582411 0.534288 0.000000
0.568576 0.534288 0.000944
0.554742 0.534288 0.000000
0.540907 0.534288 0.000000
0.527073 0.534288 0.000444
0.513238 0.534288 0.000167
0.499403 0.534288 0.000333
0.485569 0.534288 0.000222
0.471734 0.534288 0.000278
0.457899 0.534288 0.000000
0.226248 0.534288 0.000000
0.000000 0.534288 0.000000
0.843750 0.534288 0.000000
0.875000 0.534288 0.000000
0.906250 0.534288 0.000000
0.937500 0.534288 0.000000
0.968750 0.534288 0.000000
1.000000 0.534288 0.000000
0.000000 0.525065 0.000000
0.031141 0.525065 0.000546
0.062715 0.525065 0.000000
0.093750 0.525065 0.000106
0.124688 0.525065 0.000000
0.156045 0.525065 0.000000
0.187500 0.525065 0.000000
0.218552 0.525065 0.000000
0.249417 0.525065 0.000583
0.280964 0.525065 0.000000
0.312500 0.525065 0.000656
1.000000 0.525065 0.000056
0.623915 0.525065 0.000000
0.610080 0.525065 0.000222
0.596246 0.525065 0.000611
0.582411 0.525065 0.000444
0.568576 0.525065 0.000000
0.554742 0.525065 0.000056
0.540907 0.525065 0.000000
0.527073 0.525065 0.000278
0.513238 0.525065 0.000000
0.499403 0.525065 0.000278
0.485569 0.525065 0.000111
0.471734 0.525065 0.000000
0.457899 0.525065 0.000111
0.226654 0.525065 0.000000
0.000000 0.525065 0.000000
0.843861 0.525065 0.000000
0.875111 0.525065 0.000000
0.906361 0.525065 0.000000
0.937611 0.525065 0.000000
0.968861 0.525065 0.000000
1.000000 0.525065 0.000056
0.000000 0.515842 0.000222
0.031250 0.515842 0.000000
0.062177 0.515842 0.000538
0.093750 0.515842 0.000212
0.124792 0.515842 0.000000
0.156250 0.515842 0.000000
0.187500 0.515842 0.000000
0.218750 0.515842 0.000198
0.250000 0.515842 0.000000
0.281250 0.515842 0.000191
0.312500 0.515842 0.000187
0.999889 0.515842 0.000111
0.623915 0.515842 0.000056
0.610080 0.515842 0.000111
0.596246 0.515842 0.000000
0.582411 0.515842 0.000722
0.568576 0.515842 0.000000
0.554742 0.515842 0.000444
0.540907 0.515842 0.000000
0.527073 0.515842 0.000389
0.513238 0.515842 0.000000
0.499403 0.515842 0.000000
0.485569 0.515842 0.000000
0.471734 0.515842 0.000222
0.457899 0.515842 0.000000
0.226790 0.515842 0.000135
0.000198 0.515842 0.000000
0.843750 0.515842 0.000111
0.875000 0.515842 0.000111
0.906250 0.515842 0.000111
0.937500 0.515842 0.000111
0.968750 0.515842 0.000111
0.999889 0.515842 0.000111
0.000000 0.294486 0.000000
0.031250 0.294486 0.000000
0.062500 0.294486 0.000000
0.093750 0.294486 0.000000
0.125000 0.294486 0.000000
0.156250 0.294486 0.000000
0.187500 0.294486 0.000000
0.218750 0.294486 0.000000
0.250000 0.294486 0.000000
0.281250 0.294486 0.000000
0.312500 0.294486 0.000000
1.000000 0.294486 0.000000
0.623915 0.294557 0.000000
0.610080 0.294344 0.000142
0.596246 0.293135 0.001351
0.582411 0.294700 0.000000
0.568576 0.294913 0.000000
0.554742 0.294486 0.000213
0.540907 0.294842 0.000000
0.527073 0.293989 0.000569
0.513238 0.294913 0.000356
0.499403 0.294344 0.000000
0.485569 0.293775 0.000569
0.471734 0.294415 0.000000
0.457899 0.295055 0.000000
0.226488 0.294070 0.000000
0.000000 0.294486 0.000000
0.843750 0.294486 0.000000
0.875000 0.294486 0.000000
0.906250 0.294486 0.000000
0.937500 0.294486 0.000000
0.968750 0.294486 0.000000
1.000000 0.294486 0.000000
0.000000 0.750000 0.000000
0.031250 0.750000 0.000000
0.062500 0.750000 0.000000
0.093750 0.750000 0.000000
0.125000 0.750000 0.000000
0.156250 0.750000 0.000000
0.187500 0.750000 0.000000
0.218750 0.750000 0.000000
0.250000 0.750000 0.000000
0.281250 0.750000 0.000000
0.312500 0.750000 0.000000
1.000000 0.750000 0.000000
0.623915 0.749889 0.000000
0.610080 0.750000 0.000167
0.596246 0.750000 0.000056
0.582411 0.750000 0.000111
0.568576 0.750056 0.000000
0.554742 0.750000 0.000111
0.540907 0.749889 0.000167
0.527073 0.750000 0.000111
0.513238 0.750111 0.000000
0.499403 0.750000 0.000000
0.485569 0.750000 0.000000
0.471734 0.749278 0.000555
0.457899 0.750000 0.000056
0.226654 0.750000 0.000000
0.000000 0.750000 0.000000
0.843750 0.750000 0.000000
0.875000 0.750000 0.000000
0.906250 0.750000 0.000000
0.937500 0.750000 0.000000
0.968750 0.750000 0.000000
1.000000 0.750000 0.000000
0.000000 0.781250 0.000000
0.031250 0.781250 0.000000
0.062500 0.781250 0.000000
0.093750 0.781250 0.000000
0.125000 0.781250 0.000000
0.156250 0.781250 0.000000
0.187500 0.781250 0.000000
0.218750 0.781250 0.000000
0.250000 0.781250 0.000000
0.281250 0.781250 0.000000
0.312500 0.781250 0.000000
1.000000 0.781250 0.000000
0.623915 0.781139 0.000000
0.610080 0.781250 0.000167
0.596246 0.781250 0.000056
0.582411 0.781250 0.000111
0.568576 0.781306 0.000000
0.554742 0.781250 0.000111
0.540907 0.781139 0.000167
0.527073 0.781250 0.000111
0.513238 0.781361 0.000000
0.499403 0.781250 0.000000
0.485569 0.781250 0.000000
0.471734 0.780528 0.000555
0.457899 0.781250 0.000056
0.226654 0.781250 0.000000
0.000000 0.781250 0.000000
0.843750 0.781250 0.000000
0.875000 0.781250 0.000000
0.906250 0.781250 0.000000
0.937500 0.781250 0.000000
0.968750 0.781250 0.000000
1.000000 0.781250 0.000000
0.000000 0.812500 0.000000
0.031250 0.812500 0.000000
0.062500 0.812500 0.000000
0.093750 0.812500 0.000000
0.125000 0.812500 0.000000
0.156250 0.812500 0.000000
0.187500 0.812500 0.000000
0.218750 0.812500 0.000000
0.250000 0.812500 0.000000
0.281250 0.812500 0.000000
0.312500 0.812500 0.000000
1.000000 0.812500 0.000000
0.623915 0.812389 0.000000
0.610080 0.812500 0.000167
0.596246 0.812500 0.000056
0.582411 0.812500 0.000111
0.568576 0.812556 0.000000
0.554742 0.812500 0.000111
0.540907 0.812389 0.000167
0.527073 0.812500 0.000111
0.513238 0.812611 0.000000
0.499403 0.812500 0.000000
0.485569 0.812500 0.000000
0.471734 0.811778 0.000555
0.457899 0.812500 0.000056
0.226654 0.812500 0.000000
