tools/invertPheonix.cube
TITLE "Inverted LUT"
LUT_3D_SIZE 9
DOMAIN_MIN 0.000000 0.000000 0.000000
DOMAIN_MAX 1.000000 1.000000 1.000000
0.000000 0.000000 0.000000
0.125000 0.000000 0.000000
0.250000 0.000000 0.000000
0.623915 0.000666 0.000222
0.568576 0.000000 0.000000
0.513238 0.000000 0.001332
0.457899 0.000111 0.000222
0.875000 0.000000 0.000000
1.000000 0.000000 0.000000
0.000000 0.125000 0.000000
0.125000 0.125000 0.000000
0.250000 0.125000 0.000000
0.623915 0.125000 0.000000
0.568576 0.125000 0.000000
0.513238 0.125000 0.000208
0.457899 0.124896 0.000104
0.875000 0.125000 0.000000
1.000000 0.125000 0.000000
0.000000 0.250000 0.000000
0.125000 0.250000 0.000000
0.250000 0.250000 0.000000
0.623915 0.249903 0.000000
0.568576 0.250000 0.000000
0.513238 0.250097 0.000000
0.457899 0.250486 0.000486
0.875000 0.250000 0.000000
1.000000 0.250000 0.000000
0.000000 0.375000 0.000000
0.125000 0.375000 0.000000
0.250000 0.375000 0.000000
0.623915 0.375000 0.000180
0.568576 0.375090 0.000000
0.513238 0.374820 0.000000
0.457899 0.375000 0.000000
0.875000 0.375000 0.000000
1.000000 0.375000 0.000000
0.000444 0.571181 0.004108
0.125000 0.571181 0.000104
0.249806 0.571181 0.000194
0.623915 0.571181 0.000000
0.568576 0.571181 0.000000
0.513238 0.571181 0.000555
0.457899 0.571181 0.000111
0.875000 0.571181 0.000222
1.000000 0.571181 0.000167
0.000000 0.534288 0.000000
0.125000 0.534288 0.000000
0.250000 0.534288 0.000000
0.623915 0.534288 0.000000
0.568576 0.534288 0.000944
0.513238 0.534288 0.000167
0.457899 0.534288 0.000000
0.875000 0.534288 0.000000
1.000000 0.534288 0.000000
0.000000 0.750000 0.000000
0.125000 0.750000 0.000000
0.250000 0.750000 0.000000
0.623915 0.749889 0.000000
0.568576 0.750056 0.000000
0.513238 0.750111 0.000000
0.457899 0.750000 0.000056
0.875000 0.750000 0.000000
1.000000 0.750000 0.000000
0.000000 0.875000 0.000000
0.125000 0.875000 0.000000
0.250000 0.875000 0.000000
0.623915 0.874889 0.000000
0.568576 0.875056 0.000000
0.513238 0.875111 0.000000
0.457899 0.875000 0.000056
0.875000 0.875000 0.000000
1.000000 0.875000 0.000000
0.000000 1.000000 0.000000
0.125000 1.000000 0.000000
0.250000 1.000000 0.000000
0.623915 0.999889 0.000111
0.568576 1.000000 0.000000
0.513238 1.000000 0.000111
0.457899 1.000000 0.000056
0.875000 1.000000 0.000000
1.000000 1.000000 0.000000
0.000000 0.000000 0.125000
0.125000 0.000000 0.125000
0.250000 0.000000 0.125000
0.623915 0.000000 0.125000
0.568576 0.000000 0.125000
0.513238 0.000208 0.125000
0.457899 0.000312 0.125208
0.875000 0.000000 0.125000
1.000000 0.000000 0.125000
0.000000 0.125000 0.125000
0.125000 0.125000 0.125000
0.250000 0.125000 0.125000
0.623915 0.124903 0.125000
0.568576 0.125000 0.125000
0.513238 0.125000 0.125000
0.457899 0.125000 0.125000
0.875000 0.125000 0.125000
1.000000 0.125000 0.125000
0.000000 0.250000 0.125000
0.125000 0.250000 0.125000
0.250000 0.250000 0.125000
0.623915 0.250000 0.125000
0.568576 0.250090 0.125000
0.513238 0.250090 0.124910
0.457899 0.250180 0.123827
0.875000 0.250000 0.125000
1.000000 0.250000 0.125000
0.000000 0.375000 0.125000
0.125000 0.375000 0.125000
0.250000 0.375000 0.125000
0.623915 0.375000 0.125000
0.568576 0.375083 0.125000
0.513238 0.375167 0.125000
0.457899 0.375000 0.125000
0.875000 0.375000 0.125000
1.000000 0.375000 0.125000
0.000937 0.571181 0.122918
0.125000 0.571181 0.125097
0.250000 0.571181 0.125000
0.623915 0.571181 0.125049
0.568576 0.571181 0.125000
0.513238 0.571181 0.125000
0.457899 0.571181 0.124951
0.875000 0.571181 0.125097
1.000000 0.571181 0.125097
0.000000 0.534288 0.125000
0.125000 0.534288 0.125000
0.250000 0.534288 0.125000
0.623915 0.534288 0.124951
0.568576 0.534288 0.125291
0.513238 0.534288 0.125631
0.457899 0.534288 0.125486
0.875000 0.534288 0.125000
1.000000 0.534288 0.125000
0.000000 0.750000 0.125000
0.125000 0.750000 0.125000
0.250000 0.750000 0.125000
0.623915 0.749951 0.125000
0.568576 0.749903 0.125243
0.513238 0.750000 0.125000
0.457899 0.750000 0.125000
0.875000 0.750000 0.125000
1.000000 0.750000 0.125000
0.000000 0.875000 0.125000
0.125000 0.875000 0.125000
0.250000 0.875000 0.125000
0.623915 0.874951 0.125000
0.568576 0.874903 0.125243
0.513238 0.875000 0.125000
0.457899 0.875000 0.125000
0.875000 0.875000 0.125000
1.000000 0.875000 0.125000
0.000000 1.000000 0.125000
0.125000 1.000000 0.125000
0.250000 1.000000 0.125000
0.623915 0.999903 0.125000
0.568576 1.000000 0.125000
0.513238 1.000000 0.125000
0.457899 1.000000 0.125000
0.875000 1.000000 0.125000
1.000000 1.000000 0.125000
0.000000 0.000000 0.250000
0.125000 0.000000 0.250000
0.250000 0.000000 0.250000
0.623915 0.000000 0.250000
0.568576 0.000000 0.250000
0.513238 0.000000 0.250097
0.457899 0.000000 0.249806
0.875000 0.000000 0.250000
1.000000 0.000000 0.250000
0.000000 0.125000 0.250000
0.125000 0.125000 0.250000
0.250000 0.125000 0.250000
0.623915 0.125000 0.250000
0.568576 0.125000 0.250090
0.513238 0.124820 0.250271
0.457899 0.125000 0.250000
0.875000 0.125000 0.250000
1.000000 0.125000 0.250000
0.000000 0.250000 0.250000
0.125000 0.250000 0.250000
0.250000 0.250000 0.250000
0.623915 0.250000 0.250000
0.568576 0.249833 0.250250
0.513238 0.250000 0.250000
0.457899 0.249667 0.250500
0.875000 0.250000 0.250000
1.000000 0.250000 0.250000
0.000000 0.375000 0.250000
0.125000 0.375000 0.250000
0.250000 0.375000 0.250000
0.623915 0.375000 0.250000
0.568576 0.374924 0.250000
0.513238 0.375458 0.250534
0.457899 0.374924 0.250229
0.875000 0.375000 0.250000
1.000000 0.375000 0.250000
0.000486 0.571181 0.250097
0.125000 0.571181 0.250090
0.250000 0.571181 0.250083
0.623915 0.571181 0.250000
0.568576 0.571181 0.250000
0.513238 0.571181 0.250000
0.457899 0.571181 0.249875
0.875000 0.571181 0.250000
1.000000 0.571181 0.250000
0.000000 0.534288 0.250000
0.125000 0.534288 0.250000
0.250000 0.534288 0.250000
0.623915 0.534288 0.249917
0.568576 0.534288 0.250458
0.513238 0.534288 0.250167
0.457899 0.534288 0.250000
0.875000 0.534288 0.250000
1.000000 0.534288 0.250000
0.000000 0.750000 0.250000
0.125000 0.750000 0.250000
0.250000 0.750000 0.250000
0.623915 0.750000 0.250000
0.568576 0.750416 0.250042
0.513238 0.750000 0.250042
0.457899 0.750167 0.250125
0.875000 0.750000 0.250000
1.000000 0.750000 0.250000
0.000000 0.875000 0.250000
0.125000 0.875000 0.250000
0.250000 0.875000 0.250000
0.623915 0.875000 0.250000
0.568576 0.875416 0.250042
0.513238 0.875000 0.250042
0.457899 0.875167 0.250125
0.875000 0.875000 0.250000
1.000000 0.875000 0.250000
0.000000 1.000000 0.250000
0.125000 1.000000 0.250000
0.250000 1.000000 0.250000
0.623915 1.000000 0.250000
0.568576 0.999875 0.250083
0.513238 0.999958 0.250042
0.457899 1.000000 0.250000
0.875000 1.000000 0.250000
1.000000 1.000000 0.250000
0.000000 0.000000 0.375000
0.125000 0.000000 0.375000
0.250000 0.000000 0.375000
0.623915 0.000000 0.375000
0.568576 0.000000 0.375090
0.513238 0.000000 0.375271
0.457899 0.000000 0.375000
0.875000 0.000000 0.375000
1.000000 0.000000 0.375000
0.000000 0.125000 0.375000
0.125000 0.125000 0.375000
0.250000 0.125000 0.375000
0.623915 0.125000 0.375000
0.568576 0.124917 0.375083
0.513238 0.125000 0.375167
0.457899 0.125000 0.375000
0.875000 0.125000 0.375000
1.000000 0.125000 0.375000
0.000000 0.250000 0.375000
0.125000 0.250000 0.375000
0.250000 0.250000 0.375000
0.623915 0.250000 0.375000
0.568576 0.249847 0.375229
0.513238 0.250534 0.375153
0.457899 0.250000 0.375229
0.875000 0.250000 0.375000
1.000000 0.250000 0.375000
0.000000 0.375000 0.375000
0.125000 0.375000 0.375000
0.250000 0.375000 0.375000
0.623915 0.375000 0.375000
0.568576 0.374931 0.374792
0.513238 0.374792 0.375139
0.457899 0.375000 0.375000
0.875000 0.375000 0.375000
1.000000 0.375000 0.375000
0.000090 0.571181 0.374820
0.125000 0.571181 0.375083
0.249847 0.571181 0.375305
0.623915 0.571181 0.375000
0.568576 0.571181 0.375000
0.513238 0.571181 0.375104
0.457899 0.571181 0.374931
0.875035 0.571181 0.375035
1.000000 0.571181 0.375035
0.000000 0.534288 0.375000
0.125000 0.534288 0.375000
0.250000 0.534288 0.375000
0.623915 0.534288 0.374931
0.568576 0.534288 0.375104
0.513238 0.534288 0.375139
0.457899 0.534288 0.375000
0.875000 0.534288 0.375000
1.000000 0.534288 0.375000
0.000000 0.750000 0.375000
0.125000 0.750000 0.375000
0.250000 0.750000 0.375000
0.623915 0.750000 0.375000
0.568576 0.750069 0.375000
0.513238 0.750000 0.375000
0.457899 0.750000 0.375000
0.875000 0.750000 0.375000
1.000000 0.750000 0.375000
0.000000 0.875000 0.375000
0.125000 0.875000 0.375000
0.250000 0.875000 0.375000
0.623915 0.875000 0.375000
0.568576 0.875069 0.375000
0.513238 0.875000 0.375000
0.457899 0.875000 0.375000
0.875000 0.875000 0.375000
1.000000 0.875000 0.375000
0.000000 1.000000 0.375000
0.125000 1.000000 0.375000
0.250000 1.000000 0.375000
0.623915 1.000000 0.375000
0.568576 0.999931 0.374965
0.513238 0.999931 0.375000
0.457899 1.000000 0.375000
0.875000 1.000000 0.375000
1.000000 1.000000 0.375000
0.000000 0.000000 0.634673
0.124480 0.000312 0.634673
0.249806 0.000000 0.634673
0.623915 0.000000 0.634673
0.568576 0.000999 0.634673
0.513238 0.000833 0.634673
0.457899 0.000000 0.634673
0.875500 0.000111 0.634673
0.999667 0.000167 0.634673
0.000000 0.125416 0.634673
0.125097 0.125097 0.634673
0.250000 0.125090 0.634673
0.623915 0.124903 0.634673
0.568576 0.124903 0.634673
0.513238 0.125291 0.634673
0.457899 0.125049 0.634673
0.875049 0.125146 0.634673
1.000000 0.125000 0.634673
0.000194 0.249903 0.634673
0.125000 0.249910 0.634673
0.250083 0.250083 0.634673
0.623915 0.250000 0.634673
0.568576 0.250000 0.634673
0.513238 0.250208 0.634673
0.457899 0.250333 0.634673
0.875000 0.250042 0.634673
0.999584 0.250250 0.634673
0.000180 0.375000 0.634673
0.125000 0.375000 0.634673
0.250000 0.375000 0.634673
0.623915 0.375000 0.634673
0.568576 0.374965 0.634673
0.513238 0.374965 0.634673
0.457899 0.375000 0.634673
0.875000 0.375000 0.634673
1.000000 0.375000 0.634673
0.000000 0.571181 0.634673
0.125000 0.571181 0.634673
0.250000 0.571181 0.634673
0.623915 0.571181 0.634673
0.568576 0.571181 0.634673
0.513238 0.571181 0.634673
0.457899 0.571181 0.634673
0.875000 0.571181 0.634673
1.000000 0.571181 0.634673
0.000611 0.534288 0.634673
0.126020 0.534288 0.634673
0.250375 0.534288 0.634673
0.623915 0.534288 0.634673
0.568576 0.534288 0.634673
0.513238 0.534288 0.634673
0.457899 0.534288 0.634673
0.875000 0.534288 0.634673
1.000000 0.534288 0.634673
0.000888 0.749889 0.634673
0.125146 0.750049 0.634673
0.249833 0.750416 0.634673
0.623915 0.750000 0.634673
0.568576 0.750000 0.634673
0.513238 0.750000 0.634673
0.457899 0.750000 0.634673
0.875000 0.750000 0.634673
1.000000 0.750000 0.634673
0.000888 0.874889 0.634673
0.125146 0.875049 0.634673
0.249833 0.875416 0.634673
0.623915 0.875000 0.634673
0.568576 0.875000 0.634673
0.513238 0.875000 0.634673
0.457899 0.875000 0.634673
0.875000 0.875000 0.634673
1.000000 0.875000 0.634673
0.000444 0.999833 0.634673
0.125000 1.000000 0.634673
0.250042 0.999917 0.634673
0.623915 1.000000 0.634673
0.568576 1.000000 0.634673
0.513238 1.000000 0.634673
0.457899 1.000000 0.634673
0.875000 1.000000 0.634673
1.000000 1.000000 0.634673
0.001332 0.001332 0.583789
0.124271 0.000520 0.583789
0.249806 0.000097 0.583789
0.623915 0.000056 0.583789
0.568576 0.000000 0.583789
0.513238 0.000000 0.583789
0.457899 0.000000 0.583789
0.875000 0.000111 0.583789
1.000000 0.000111 0.583789
0.000520 0.125104 0.583789
0.125000 0.125000 0.583789
0.250361 0.124549 0.583789
0.623915 0.124903 0.583789
0.568576 0.124903 0.583789
0.513238 0.124806 0.583789
0.457899 0.124951 0.583789
0.875000 0.125000 0.583789
1.000000 0.125000 0.583789
0.000971 0.249417 0.583789
0.124820 0.250090 0.583789
0.250083 0.249833 0.583789
0.623915 0.250083 0.583789
0.568576 0.249917 0.583789
0.513238 0.250250 0.583789
0.457899 0.249917 0.583789
0.875000 0.250000 0.583789
0.999875 0.250000 0.583789
0.000000 0.374820 0.583789
0.124917 0.374833 0.583789
0.250000 0.375000 0.583789
0.623915 0.374965 0.583789
0.568576 0.374896 0.583789
0.513238 0.374931 0.583789
0.457899 0.375000 0.583789
0.875000 0.375000 0.583789
0.999896 0.375035 0.583789
0.000056 0.571181 0.583789
0.125000 0.571181 0.583789
0.249917 0.571181 0.583789
0.623915 0.571181 0.583789
0.568576 0.571181 0.583789
0.513238 0.571181 0.583789
0.457899 0.571181 0.583789
0.875000 0.571181 0.583789
1.000000 0.571181 0.583789
0.000389 0.534288 0.583789
0.124709 0.534288 0.583789
0.249875 0.534288 0.583789
0.623915 0.534288 0.583789
0.568576 0.534288 0.583789
0.513238 0.534288 0.583789
0.457899 0.534288 0.583789
0.875000 0.534288 0.583789
1.000000 0.534288 0.583789
0.000111 0.750000 0.583789
0.125000 0.750000 0.583789
0.250000 0.750000 0.583789
0.623915 0.750000 0.583789
0.568576 0.750000 0.583789
0.513238 0.750000 0.583789
0.457899 0.750000 0.583789
0.875000 0.750000 0.583789
1.000000 0.750000 0.583789
0.000111 0.875000 0.583789
0.125000 0.875000 0.583789
0.250000 0.875000 0.583789
0.623915 0.875000 0.583789
0.568576 0.875000 0.583789
0.513238 0.875000 0.583789
0.457899 0.875000 0.583789
0.875000 0.875000 0.583789
1.000000 0.875000 0.583789
0.000111 1.000000 0.583789
0.125000 1.000000 0.583789
0.249958 0.999917 0.583789
0.623915 1.000000 0.583789
0.568576 1.000000 0.583789
0.513238 1.000000 0.583789
0.457899 1.000000 0.583789
0.875000 1.000000 0.583789
1.000000 1.000000 0.583789
0.000333 0.000222 0.535342
0.124896 0.000312 0.535342
0.250000 0.000194 0.535342
0.623915 0.000000 0.535342
0.568576 0.000000 0.535342
0.513238 0.000222 0.535342
0.457899 0.000278 0.535342
0.875000 0.000056 0.535342
1.000000 0.000000 0.535342
0.000104 0.125000 0.535342
0.125389 0.125389 0.535342
0.250000 0.125090 0.535342
0.623915 0.125000 0.535342
0.568576 0.125340 0.535342
0.513238 0.124757 0.535342
0.457899 0.125097 0.535342
0.875000 0.125000 0.535342
1.000000 0.125000 0.535342
0.000194 0.250000 0.535342
0.125180 0.250090 0.535342
0.250000 0.250000 0.535342
0.623915 0.250000 0.535342
0.568576 0.249792 0.535342
0.513238 0.250000 0.535342
0.457899 0.250375 0.535342
0.875000 0.250000 0.535342
1.000000 0.250000 0.535342
0.000000 0.375090 0.535342
0.125000 0.375000 0.535342
0.250000 0.375000 0.535342
0.623915 0.375000 0.535342
0.568576 0.375139 0.535342
0.513238 0.375416 0.535342
0.457899 0.375000 0.535342
0.875000 0.375000 0.535342
1.000000 0.375000 0.535342
0.000111 0.571181 0.535342
0.125000 0.571181 0.535342
0.249958 0.571181 0.535342
0.623915 0.571181 0.535342
0.568576 0.571181 0.535342
0.513238 0.571181 0.535342
0.457899 0.571181 0.535342
0.875000 0.571181 0.535342
1.000000 0.571181 0.535342
0.000000 0.534288 0.535342
0.125583 0.534288 0.535342
0.250167 0.534288 0.535342
0.623915 0.534288 0.535342
0.568576 0.534288 0.535342
0.513238 0.534288 0.535342
0.457899 0.534288 0.535342
0.875000 0.534288 0.535342
1.000000 0.534288 0.535342
0.000056 0.750000 0.535342
0.125000 0.750000 0.535342
0.250000 0.750000 0.535342
0.623915 0.750000 0.535342
0.568576 0.750000 0.535342
0.513238 0.750000 0.535342
0.457899 0.750000 0.535342
0.875000 0.750000 0.535342
1.000000 0.750000 0.535342
0.000056 0.875000 0.535342
0.125000 0.875000 0.535342
0.250000 0.875000 0.535342
0.623915 0.875000 0.535342
0.568576 0.875000 0.535342
0.513238 0.875000 0.535342
0.457899 0.875000 0.535342
0.875000 0.875000 0.535342
1.000000 0.875000 0.535342
0.000389 1.000000 0.535342
0.125000 1.000000 0.535342
0.250000 1.000000 0.535342
0.623915 1.000000 0.535342
0.568576 1.000000 0.535342
0.513238 1.000000 0.535342
0.457899 1.000000 0.535342
0.875000 1.000000 0.535342
1.000000 1.000000 0.535342
0.000000 0.000000 0.875000
0.125000 0.000000 0.875000
0.250000 0.000000 0.875000
0.623915 0.000000 0.875000
0.568576 0.000000 0.875056
0.513238 0.000111 0.875000
0.457899 0.000056 0.874944
0.875000 0.000000 0.875000
1.000000 0.000000 0.875000
0.000000 0.125000 0.875000
0.125000 0.125000 0.875000
0.250000 0.125000 0.875000
0.623915 0.125000 0.874951
0.568576 0.125000 0.875049
0.513238 0.125000 0.875000
0.457899 0.125000 0.875000
0.875000 0.125000 0.875000
1.000000 0.125000 0.875000
0.000000 0.250000 0.875000
0.125000 0.250000 0.875000
0.250000 0.250000 0.875000
0.623915 0.250000 0.875000
0.568576 0.250000 0.875042
0.513238 0.249917 0.875083
0.457899 0.250250 0.875333
0.875000 0.250000 0.875000
1.000000 0.250000 0.875000
0.000000 0.375000 0.875000
0.125000 0.375000 0.875000
0.250000 0.375000 0.875000
0.623915 0.375000 0.875000
0.568576 0.375035 0.875069
0.513238 0.375000 0.875000
0.457899 0.375000 0.875000
0.875000 0.375000 0.875000
1.000000 0.375000 0.875000
0.000000 0.571181 0.875056
0.125000 0.571181 0.875000
0.250000 0.571181 0.875000
0.623915 0.571181 0.875000
0.568576 0.571181 0.875000
0.513238 0.571181 0.875000
0.457899 0.571181 0.875000
0.875000 0.571181 0.875000
1.000000 0.571181 0.875000
0.000000 0.534288 0.875056
0.125000 0.534288 0.875049
0.250000 0.534288 0.875042
0.623915 0.534288 0.875000
0.568576 0.534288 0.875000
0.513238 0.534288 0.875000
0.457899 0.534288 0.875000
0.875000 0.534288 0.875000
1.000000 0.534288 0.875000
0.000000 0.750000 0.875000
0.125000 0.750000 0.875000
0.250000 0.750000 0.875000
0.623915 0.750000 0.875000
0.568576 0.750000 0.875000
0.513238 0.750000 0.875000
0.457899 0.750000 0.875000
0.875000 0.750000 0.875000
1.000000 0.750000 0.875000
0.000000 0.875000 0.875000
0.125000 0.875000 0.875000
0.250000 0.875000 0.875000
0.623915 0.875000 0.875000
0.568576 0.875000 0.875000
0.513238 0.875000 0.875000
0.457899 0.875000 0.875000
0.875000 0.875000 0.875000
1.000000 0.875000 0.875000
0.000000 1.000000 0.875000
0.125000 1.000000 0.875000
0.250000 1.000000 0.875000
0.623915 1.000000 0.875000
0.568576 1.000000 0.875000
0.513238 1.000000 0.875000
0.457899 1.000000 0.875000
0.875000 1.000000 0.875000
1.000000 1.000000 0.875000
0.000000 0.000000 1.000000
0.125000 0.000000 1.000000
0.250000 0.000000 1.000000
0.623915 0.000000 1.000000
0.568576 0.000000 1.000000
0.513238 0.000111 1.000000
0.457899 0.000444 1.000000
0.875000 0.000000 1.000000
1.000000 0.000000 1.000000
0.000000 0.125000 1.000000
0.125000 0.125000 1.000000
0.250000 0.125000 1.000000
0.623915 0.125000 0.999903
0.568576 0.125000 1.000000
0.513238 0.125000 1.000000
0.457899 0.125000 1.000000
0.875000 0.125000 1.000000
1.000000 0.125000 1.000000
0.000000 0.250000 1.000000
0.125000 0.250000 1.000000
0.250000 0.250000 1.000000
0.623915 0.250000 1.000000
0.568576 0.250083 0.999917
0.513238 0.250042 1.000000
0.457899 0.250000 1.000000
0.875000 0.250000 1.000000
1.000000 0.250000 1.000000
0.000000 0.375000 1.000000
0.125000 0.375000 1.000000
0.250000 0.375000 1.000000
0.623915 0.375000 1.000000
0.568576 0.375035 1.000000
0.513238 0.375000 1.000000
0.457899 0.375000 1.000000
0.875000 0.375000 1.000000
1.000000 0.375000 1.000000
0.000000 0.571181 1.000000
0.125000 0.571181 1.000000
0.250000 0.571181 1.000000
0.623915 0.571181 1.000000
0.568576 0.571181 1.000000
0.513238 0.571181 1.000000
0.457899 0.571181 1.000000
0.875000 0.571181 1.000000
1.000000 0.571181 1.000000
0.000000 0.534288 1.000000
0.125000 0.534288 1.000000
0.250000 0.534288 1.000000
0.623915 0.534288 1.000000
0.568576 0.534288 1.000000
0.513238 0.534288 1.000000
0.457899 0.534288 1.000000
0.875000 0.534288 1.000000
1.000000 0.534288 1.000000
0.000000 0.750000 1.000000
0.125000 0.750000 1.000000
0.250000 0.750000 1.000000
0.623915 0.750000 1.000000
0.568576 0.750000 1.000000
0.513238 0.750000 1.000000
0.457899 0.750000 1.000000
0.875000 0.750000 1.000000
1.000000 0.750000 1.000000
0.000000 0.875000 1.000000
0.125000 0.875000 1.000000
0.250000 0.875000 1.000000
0.623915 0.875000 1.000000
0.568576 0.875000 1.000000
0.513238 0.875000 1.000000
0.457899 0.875000 1.000000
0.875000 0.875000 1.000000
1.000000 0.875000 1.000000
0.000000 1.000000 1.000000
0.125000 1.000000 1.000000
0.250000 1.000000 1.000000
0.623915 1.000000 1.000000
0.568576 1.000000 1.000000
0.513238 1.000000 1.000000
0.457899 1.000000 1.000000
0.875000 1.000000 1.000000
1.000000 1.000000 1.000000
