tools/reversePheonix.cube
TITLE "Inverted LUT"
LUT_3D_SIZE 9
DOMAIN_MIN 0.000000 0.000000 0.000000
DOMAIN_MAX 1.000000 1.000000 1.000000
0.812500 0.718750 0.843750
0.732856 0.718750 0.892144
0.676953 0.739453 0.885938
0.623915 0.718750 1.000000
0.568576 0.718750 0.874131
0.513238 0.718750 0.893012
0.457899 0.718750 0.885851
0.402930 0.718750 0.916211
0.000000 0.718750 0.875000
0.812500 0.681858 0.869358
0.732856 0.681858 0.966145
0.676953 0.681858 0.974392
0.623915 0.681858 0.945095
0.568576 0.681858 0.901041
0.513238 0.681858 0.935547
0.457899 0.681858 0.902344
0.402930 0.681858 0.919575
0.005642 0.681858 0.900608
0.812500 0.644965 0.888889
0.732856 0.644965 0.957465
0.676953 0.644965 0.957074
0.623915 0.644965 0.900173
0.568576 0.644965 0.900173
0.513238 0.644965 0.971571
0.457899 0.644965 0.863715
0.402930 0.644965 0.879644
0.019965 0.644965 0.863715
0.812500 0.608073 0.934896
0.732856 0.608073 0.900824
0.676953 0.608073 0.886328
0.623915 0.608073 0.980903
0.568576 0.608073 0.938368
0.513238 0.608073 0.883464
0.457899 0.608073 0.877604
0.402930 0.608073 0.882682
0.000000 0.608073 0.877604
0.812500 0.571181 0.861111
0.732856 0.571181 0.904080
0.676953 0.571181 0.887022
0.623915 0.571181 0.966580
0.568576 0.571181 0.858507
0.513238 0.571181 0.866319
0.457899 0.571181 0.966580
0.402930 0.571181 0.881640
0.000000 0.571181 0.883681
0.812500 0.534288 0.871962
0.732856 0.534288 0.892144
0.676953 0.534288 0.923915
0.623915 0.534288 0.881944
0.568576 0.534288 0.852864
0.513238 0.534288 0.882812
0.457899 0.534288 0.970486
0.402930 0.534288 0.909852
0.028212 0.534288 0.846788
0.812500 0.497396 0.908854
0.732856 0.497396 0.860894
0.676953 0.497396 0.880729
0.623915 0.497396 0.993272
0.568576 0.497396 0.876737
0.513238 0.497396 0.885417
0.457899 0.497396 0.921007
0.402930 0.497396 0.986003
0.000000 0.497396 0.940104
0.812500 0.461072 0.914467
0.732856 0.461072 0.921792
0.676953 0.461072 0.900903
0.623915 0.461072 0.930368
0.568576 0.461072 0.892690
0.513238 0.461072 0.963976
0.457899 0.461072 0.914691
0.402930 0.461072 0.877781
0.000000 0.461072 0.945717
0.812500 0.000000 0.843750
0.732856 0.000000 0.892144
0.676953 0.000000 0.854297
0.623915 0.000000 0.938585
0.568576 0.000000 0.868055
0.513238 0.018012 0.883464
0.457899 0.010851 0.926649
0.402930 0.027930 1.000000
0.000000 0.000000 0.843750
0.812500 0.751953 0.783203
0.732856 0.838975 0.783203
0.676953 0.927343 0.783203
0.623915 0.779297 0.783203
0.568576 0.827691 0.783203
0.513238 0.971571 0.783203
0.457899 0.866318 0.783203
0.402930 0.928516 0.783203
0.000000 0.779297 0.783203
0.900608 0.681858 0.783203
0.732856 0.681858 0.783203
0.676953 0.681858 0.783203
0.623915 0.681858 0.783203
0.568576 0.681858 0.783203
0.513238 0.681858 0.783203
0.457899 0.681858 0.783203
0.402930 0.681858 0.783203
0.124783 0.681858 0.783203
0.886285 0.644965 0.783203
0.732856 0.644965 0.783203
0.676953 0.644965 0.783203
0.623915 0.644965 0.783203
0.568576 0.644965 0.783203
0.513238 0.644965 0.783203
0.457899 0.644965 0.783203
0.402930 0.644965 0.783203
0.120877 0.644965 0.783203
0.859375 0.608073 0.783203
0.732856 0.608073 0.783203
0.676953 0.608073 0.783203
0.623915 0.608073 0.783203
0.568576 0.608073 0.783203
0.513238 0.608073 0.783203
0.457899 0.608073 0.783203
0.402930 0.608073 0.783203
0.104166 0.608073 0.783203
0.951823 0.571181 0.783203
0.732856 0.571181 0.783203
0.676953 0.571181 0.783203
0.623915 0.571181 0.783203
0.568576 0.571181 0.783203
0.513238 0.571181 0.783203
0.457899 0.571181 0.783203
0.402930 0.571181 0.783203
0.062933 0.571181 0.783203
0.887153 0.534288 0.783203
0.732856 0.534288 0.783203
0.676953 0.534288 0.783203
0.623915 0.534288 0.783203
0.568576 0.534288 0.783203
0.513238 0.534288 0.783203
0.457899 0.534288 0.783203
0.402930 0.534288 0.783203
0.287110 0.534288 0.783203
0.894531 0.497396 0.783203
0.732856 0.497396 0.783203
0.676953 0.497396 0.783203
0.623915 0.497396 0.783203
0.568576 0.497396 0.783203
0.513238 0.497396 0.783203
0.457899 0.497396 0.783203
0.402930 0.497396 0.783203
0.005860 0.497396 0.783203
0.831897 0.461072 0.783203
0.732856 0.461072 0.783203
0.676953 0.461072 0.783203
0.623915 0.461072 0.783203
0.568576 0.461072 0.783203
0.513238 0.461072 0.783203
0.457899 0.461072 0.783203
0.402930 0.461072 0.783203
0.009766 0.461072 0.783203
0.812500 0.039063 0.783203
0.732856 0.075521 0.783203
0.676953 0.227735 0.783203
0.623915 0.035156 0.783203
0.568576 0.152344 0.783203
0.513238 0.177083 0.783203
0.457899 0.180556 0.783203
0.402930 0.097070 0.783203
0.000000 0.058594 0.783203
0.812500 0.782894 0.733964
0.732856 0.860608 0.733964
0.676953 0.830220 0.733964
0.623915 0.817925 0.733964
0.568576 0.771337 0.733964
0.513238 0.775654 0.733964
0.457899 0.873014 0.733964
0.402930 0.849568 0.733964
0.000000 0.825248 0.733964
0.870180 0.681858 0.733964
0.732856 0.681858 0.733964
0.676953 0.681858 0.733964
0.623915 0.681858 0.733964
0.568576 0.681858 0.733964
0.513238 0.681858 0.733964
0.457899 0.681858 0.733964
0.402930 0.681858 0.733964
0.074607 0.681858 0.733964
0.833287 0.644965 0.733964
0.732856 0.644965 0.733964
0.676953 0.644965 0.733964
0.623915 0.644965 0.733964
0.568576 0.644965 0.733964
0.513238 0.644965 0.733964
0.457899 0.644965 0.733964
0.402930 0.644965 0.733964
0.023757 0.644965 0.733964
0.842037 0.608073 0.733964
0.732856 0.608073 0.733964
0.676953 0.608073 0.733964
0.623915 0.608073 0.733964
0.568576 0.608073 0.733964
0.513238 0.608073 0.733964
0.457899 0.608073 0.733964
0.402930 0.608073 0.733964
0.052495 0.608073 0.733964
0.821181 0.571181 0.733964
0.732856 0.571181 0.733964
0.676953 0.571181 0.733964
0.623915 0.571181 0.733964
0.568576 0.571181 0.733964
0.513238 0.571181 0.733964
0.457899 0.571181 0.733964
0.402930 0.571181 0.733964
0.109283 0.571181 0.733964
0.868924 0.534288 0.733964
0.732856 0.534288 0.733964
0.676953 0.534288 0.733964
0.623915 0.534288 0.733964
0.568576 0.534288 0.733964
0.513238 0.534288 0.733964
0.457899 0.534288 0.733964
0.402930 0.534288 0.733964
0.200498 0.534288 0.733964
0.868147 0.497396 0.733964
0.732856 0.497396 0.733964
0.676953 0.497396 0.733964
0.623915 0.497396 0.733964
0.568576 0.497396 0.733964
0.513238 0.497396 0.733964
0.457899 0.497396 0.733964
0.402930 0.497396 0.733964
0.070725 0.497396 0.733964
0.851286 0.461072 0.733964
0.732856 0.461072 0.733964
0.676953 0.461072 0.733964
0.623915 0.461072 0.733964
0.568576 0.461072 0.733964
0.513238 0.461072 0.733964
0.457899 0.461072 0.733964
0.402930 0.461072 0.733964
0.259436 0.461072 0.733964
0.812500 0.030428 0.733964
0.732856 0.136329 0.733964
0.676953 0.148686 0.733964
0.623915 0.160590 0.733964
0.568576 0.173657 0.733964
0.513238 0.090550 0.733964
0.457899 0.190105 0.733964
0.402930 0.136637 0.733964
0.000000 0.030428 0.733964
0.812500 0.747327 0.684827
0.732856 0.796086 0.684827
0.676953 0.854543 0.684827
0.623915 0.814167 0.684827
0.568576 0.898962 0.684827
0.513238 0.783351 0.684827
0.457899 0.861317 0.684827
0.402930 0.892238 0.684827
0.000000 0.750000 0.684827
0.900608 0.681858 0.684827
0.732856 0.681858 0.684827
0.676953 0.681858 0.684827
0.623915 0.681858 0.684827
0.568576 0.681858 0.684827
0.513238 0.681858 0.684827
0.457899 0.681858 0.684827
0.402930 0.681858 0.684827
0.099986 0.681858 0.684827
0.908854 0.644965 0.684827
0.732856 0.644965 0.684827
0.676953 0.644965 0.684827
0.623915 0.644965 0.684827
0.568576 0.644965 0.684827
0.513238 0.644965 0.684827
0.457899 0.644965 0.684827
0.402930 0.644965 0.684827
0.145034 0.644965 0.684827
0.917969 0.608073 0.684827
0.732856 0.608073 0.684827
0.676953 0.608073 0.684827
0.623915 0.608073 0.684827
0.568576 0.608073 0.684827
0.513238 0.608073 0.684827
0.457899 0.608073 0.684827
0.402930 0.608073 0.684827
0.048246 0.608073 0.684827
0.897569 0.571181 0.684827
0.732856 0.571181 0.684827
0.676953 0.571181 0.684827
0.623915 0.571181 0.684827
0.568576 0.571181 0.684827
0.513238 0.571181 0.684827
0.457899 0.571181 0.684827
0.402930 0.571181 0.684827
0.140238 0.571181 0.684827
0.939808 0.534288 0.684827
0.732856 0.534288 0.684827
0.676953 0.534288 0.684827
0.623915 0.534288 0.684827
0.568576 0.534288 0.684827
0.513238 0.534288 0.684827
0.457899 0.534288 0.684827
0.402930 0.534288 0.684827
0.142886 0.534288 0.684827
0.872464 0.497396 0.684827
0.732856 0.497396 0.684827
0.676953 0.497396 0.684827
0.623915 0.497396 0.684827
0.568576 0.497396 0.684827
0.513238 0.497396 0.684827
0.457899 0.497396 0.684827
0.402930 0.497396 0.684827
0.000137 0.497396 0.684827
0.820519 0.461072 0.684827
0.732856 0.461072 0.684827
0.676953 0.461072 0.684827
0.623915 0.461072 0.684827
0.568576 0.461072 0.684827
0.513238 0.461072 0.684827
0.457899 0.461072 0.684827
0.402930 0.461072 0.684827
0.054822 0.461072 0.684827
0.812500 0.002673 0.684827
0.732856 0.182519 0.684827
0.676953 0.098951 0.684827
0.623915 0.121745 0.684827
0.568576 0.041942 0.684827
0.513238 0.107559 0.684827
0.457899 0.112619 0.684827
0.402930 0.027930 0.684827
0.000000 0.142886 0.684827
0.812500 0.718750 0.634673
0.732856 0.759673 0.634673
0.676953 0.751358 0.634673
0.623915 0.799572 0.634673
0.568576 0.728423 0.634673
0.513238 0.799386 0.634673
0.457899 0.862847 0.634673
0.402930 0.861719 0.634673
0.000000 0.750000 0.634673
0.845362 0.681858 0.634673
0.732856 0.681858 0.634673
0.676953 0.681858 0.634673
0.623915 0.681858 0.634673
0.568576 0.681858 0.634673
0.513238 0.681858 0.634673
0.457899 0.681858 0.634673
0.402930 0.681858 0.634673
0.011285 0.681858 0.634673
0.878845 0.644965 0.634673
0.732856 0.644965 0.634673
0.676953 0.644965 0.634673
0.623915 0.644965 0.634673
0.568576 0.644965 0.634673
0.513238 0.644965 0.634673
0.457899 0.644965 0.634673
0.402930 0.644965 0.634673
0.095362 0.644965 0.634673
0.915737 0.608073 0.634673
0.732856 0.608073 0.634673
0.676953 0.608073 0.634673
0.623915 0.608073 0.634673
0.568576 0.608073 0.634673
0.513238 0.608073 0.634673
0.457899 0.608073 0.634673
0.402930 0.608073 0.634673
0.115327 0.608073 0.634673
0.834821 0.571181 0.634673
0.732856 0.571181 0.634673
0.676953 0.571181 0.634673
0.623915 0.571181 0.634673
0.568576 0.571181 0.634673
0.513238 0.571181 0.634673
0.457899 0.571181 0.634673
0.402930 0.571181 0.634673
0.091022 0.571181 0.634673
0.942213 0.534288 0.634673
0.732856 0.534288 0.634673
0.676953 0.534288 0.634673
0.623915 0.534288 0.634673
0.568576 0.534288 0.634673
0.513238 0.534288 0.634673
0.457899 0.534288 0.634673
0.402930 0.534288 0.634673
0.040923 0.534288 0.634673
0.941592 0.497396 0.634673
0.732856 0.497396 0.634673
0.676953 0.497396 0.634673
0.623915 0.497396 0.634673
0.568576 0.497396 0.634673
0.513238 0.497396 0.634673
0.457899 0.497396 0.634673
0.402930 0.497396 0.634673
0.122024 0.497396 0.634673
0.890657 0.461072 0.634673
0.732856 0.461072 0.634673
0.676953 0.461072 0.634673
0.623915 0.461072 0.634673
0.568576 0.461072 0.634673
0.513238 0.461072 0.634673
0.457899 0.461072 0.634673
0.402930 0.461072 0.634673
0.007678 0.461072 0.634673
0.812500 0.009673 0.634673
0.732856 0.074405 0.634673
0.676953 0.051860 0.634673
0.623915 0.149833 0.634673
0.568576 0.084820 0.634673
0.513238 0.136781 0.634673
0.457899 0.051773 0.634673
0.402930 0.074405 0.634673
0.000000 0.043155 0.634673
0.812500 0.738672 0.583789
0.732856 0.841492 0.583789
0.676953 0.832617 0.583789
0.623915 0.856445 0.583789
0.568576 0.784266 0.583789
0.513238 0.779883 0.583789
0.457899 0.791688 0.583789
0.402930 0.879688 0.583789
0.000000 0.802539 0.583789
0.918945 0.681858 0.583789
0.732856 0.681858 0.583789
0.676953 0.681858 0.583789
0.623915 0.681858 0.583789
0.568576 0.681858 0.583789
0.513238 0.681858 0.583789
0.457899 0.681858 0.583789
0.402930 0.681858 0.583789
0.186219 0.681858 0.583789
0.866363 0.644965 0.583789
0.732856 0.644965 0.583789
0.676953 0.644965 0.583789
0.623915 0.644965 0.583789
0.568576 0.644965 0.583789
0.513238 0.644965 0.583789
0.457899 0.644965 0.583789
0.402930 0.644965 0.583789
0.081142 0.644965 0.583789
0.930143 0.608073 0.583789
0.732856 0.608073 0.583789
0.676953 0.608073 0.583789
0.623915 0.608073 0.583789
0.568576 0.608073 0.583789
0.513238 0.608073 0.583789
0.457899 0.608073 0.583789
0.402930 0.608073 0.583789
0.098959 0.608073 0.583789
0.868511 0.571181 0.583789
0.732856 0.571181 0.583789
0.676953 0.571181 0.583789
0.623915 0.571181 0.583789
0.568576 0.571181 0.583789
0.513238 0.571181 0.583789
0.457899 0.571181 0.583789
0.402930 0.571181 0.583789
0.085894 0.571181 0.583789
0.843750 0.534288 0.583789
0.732856 0.534288 0.583789
0.676953 0.534288 0.583789
0.623915 0.534288 0.583789
0.568576 0.534288 0.583789
0.513238 0.534288 0.583789
0.457899 0.534288 0.583789
0.402930 0.534288 0.583789
0.044249 0.534288 0.583789
0.848959 0.497396 0.583789
0.732856 0.497396 0.583789
0.676953 0.497396 0.583789
0.623915 0.497396 0.583789
0.568576 0.497396 0.583789
0.513238 0.497396 0.583789
0.457899 0.497396 0.583789
0.402930 0.497396 0.583789
0.260872 0.497396 0.583789
0.908533 0.461072 0.583789
0.732856 0.461072 0.583789
0.676953 0.461072 0.583789
0.623915 0.461072 0.583789
0.568576 0.461072 0.583789
0.513238 0.461072 0.583789
0.457899 0.461072 0.583789
0.402930 0.461072 0.583789
0.094289 0.461072 0.583789
0.812500 0.093750 0.583789
0.732856 0.117817 0.583789
0.676953 0.052930 0.583789
0.623915 0.124436 0.583789
0.568576 0.110612 0.583789
0.513238 0.067274 0.583789
0.457899 0.082835 0.583789
0.402930 0.037890 0.583789
0.000000 0.073828 0.583789
0.812500 0.781250 0.535342
0.732856 0.799448 0.535342
0.676953 0.877363 0.535342
0.623915 0.782583 0.535342
0.568576 0.923115 0.535342
0.513238 0.744946 0.535342
0.457899 0.878969 0.535342
0.402930 0.725930 0.535342
0.000000 0.862724 0.535342
0.877046 0.681858 0.535342
0.732856 0.681858 0.535342
0.676953 0.681858 0.535342
0.623915 0.681858 0.535342
0.568576 0.681858 0.535342
0.513238 0.681858 0.535342
0.457899 0.681858 0.535342
0.402930 0.681858 0.535342
0.024553 0.681858 0.535342
0.846354 0.644965 0.535342
0.732856 0.644965 0.535342
0.676953 0.644965 0.535342
0.623915 0.644965 0.535342
0.568576 0.644965 0.535342
0.513238 0.644965 0.535342
0.457899 0.644965 0.535342
0.402930 0.644965 0.535342
0.008184 0.644965 0.535342
0.868304 0.608073 0.535342
0.732856 0.608073 0.535342
0.676953 0.608073 0.535342
0.623915 0.608073 0.535342
0.568576 0.608073 0.535342
0.513238 0.608073 0.535342
0.457899 0.608073 0.535342
0.402930 0.608073 0.535342
0.025111 0.608073 0.535342
0.862227 0.571181 0.535342
0.732856 0.571181 0.535342
0.676953 0.571181 0.535342
0.623915 0.571181 0.535342
0.568576 0.571181 0.535342
0.513238 0.571181 0.535342
0.457899 0.571181 0.535342
0.402930 0.571181 0.535342
0.076389 0.571181 0.535342
0.919147 0.534288 0.535342
0.732856 0.534288 0.535342
0.676953 0.534288 0.535342
0.623915 0.534288 0.535342
0.568576 0.534288 0.535342
0.513238 0.534288 0.535342
0.457899 0.534288 0.535342
0.402930 0.534288 0.535342
0.119854 0.534288 0.535342
0.848959 0.497396 0.535342
0.732856 0.497396 0.535342
0.676953 0.497396 0.535342
0.623915 0.497396 0.535342
0.568576 0.497396 0.535342
0.513238 0.497396 0.535342
0.457899 0.497396 0.535342
0.402930 0.497396 0.535342
0.022320 0.497396 0.535342
0.918020 0.461072 0.535342
0.732856 0.461072 0.535342
0.676953 0.461072 0.535342
0.623915 0.461072 0.535342
0.568576 0.461072 0.535342
0.513238 0.461072 0.535342
0.457899 0.461072 0.535342
0.402930 0.461072 0.535342
0.050730 0.461072 0.535342
0.812500 0.039434 0.535342
0.732856 0.139106 0.535342
0.676953 0.039434 0.535342
0.623915 0.303231 0.535342
0.568576 0.251984 0.535342
0.513238 0.108352 0.535342
0.457899 0.021702 0.535342
0.402930 0.065048 0.535342
0.000000 0.139881 0.535342
0.812500 0.827567 0.484933
0.732856 0.873729 0.484933
0.676953 0.752566 0.484933
0.623915 0.885819 0.484933
0.568576 0.785094 0.484933
0.513238 0.796317 0.484933
0.457899 0.881448 0.484933
0.402930 0.847516 0.484933
0.000000 0.812500 0.484933
0.910405 0.681858 0.484933
0.732856 0.681858 0.484933
0.676953 0.681858 0.484933
0.623915 0.681858 0.484933
0.568576 0.681858 0.484933
0.513238 0.681858 0.484933
0.457899 0.681858 0.484933
0.402930 0.681858 0.484933
0.135913 0.681858 0.484933
0.873512 0.644965 0.484933
0.732856 0.644965 0.484933
0.676953 0.644965 0.484933
0.623915 0.644965 0.484933
0.568576 0.644965 0.484933
0.513238 0.644965 0.484933
0.457899 0.644965 0.484933
0.402930 0.644965 0.484933
0.162202 0.644965 0.484933
0.828683 0.608073 0.484933
0.732856 0.608073 0.484933
0.676953 0.608073 0.484933
0.623915 0.608073 0.484933
0.568576 0.608073 0.484933
0.513238 0.608073 0.484933
0.457899 0.608073 0.484933
0.402930 0.608073 0.484933
0.036830 0.608073 0.484933
0.828683 0.571181 0.484933
0.732856 0.571181 0.484933
0.676953 0.571181 0.484933
0.623915 0.571181 0.484933
0.568576 0.571181 0.484933
0.513238 0.571181 0.484933
0.457899 0.571181 0.484933
0.402930 0.571181 0.484933
0.027840 0.571181 0.484933
0.848586 0.534288 0.484933
0.732856 0.534288 0.484933
0.676953 0.534288 0.484933
0.623915 0.534288 0.484933
0.568576 0.534288 0.484933
0.513238 0.534288 0.484933
0.457899 0.534288 0.484933
0.402930 0.534288 0.484933
0.000000 0.534288 0.484933
0.812500 0.497396 0.484933
0.732856 0.497396 0.484933
0.676953 0.497396 0.484933
0.623915 0.497396 0.484933
0.568576 0.497396 0.484933
0.513238 0.497396 0.484933
0.457899 0.497396 0.484933
0.402930 0.497396 0.484933
0.135602 0.497396 0.484933
0.819889 0.461072 0.484933
0.732856 0.461072 0.484933
0.676953 0.461072 0.484933
0.623915 0.461072 0.484933
0.568576 0.461072 0.484933
0.513238 0.461072 0.484933
0.457899 0.461072 0.484933
0.402930 0.461072 0.484933
0.102544 0.461072 0.484933
0.812500 0.031250 0.484933
0.732856 0.061539 0.484933
0.676953 0.121205 0.484933
0.623915 0.112134 0.484933
0.568576 0.086805 0.484933
0.513238 0.138609 0.484933
0.457899 0.079613 0.484933
0.402930 0.089342 0.484933
0.000000 0.030134 0.484933
0.812500 0.718750 0.000000
0.732856 0.718750 0.121962
0.676953 0.718750 0.083594
0.623915 0.718750 0.064670
0.568576 0.718750 0.024305
0.513238 0.718750 0.147786
0.457899 0.718750 0.084202
0.402930 0.718750 0.187500
0.000000 0.718750 0.000000
0.812500 0.681858 0.000000
0.732856 0.681858 0.184029
0.676953 0.681858 0.155859
0.623915 0.681858 0.092014
0.568576 0.681858 0.117623
0.513238 0.681858 0.144965
0.457899 0.681858 0.211805
0.402930 0.681858 0.084787
0.000000 0.681858 0.076823
0.812500 0.644965 0.000000
0.732856 0.644965 0.261502
0.676953 0.644965 0.134765
0.623915 0.644965 0.277344
0.568576 0.644965 0.166667
0.513238 0.644965 0.055773
0.457899 0.644965 0.136719
0.402930 0.644965 0.070464
0.000000 0.644965 0.067708
0.812500 0.608073 0.016927
0.732856 0.608073 0.190321
0.676953 0.608073 0.050129
0.623915 0.608073 0.201822
0.568576 0.608073 0.164931
0.513238 0.608073 0.093750
0.457899 0.608073 0.201390
0.402930 0.608073 0.069856
0.000000 0.608073 0.102864
0.812500 0.571181 0.008681
0.732856 0.571181 0.091797
0.676953 0.571181 0.069575
0.623915 0.571181 0.073351
0.568576 0.571181 0.076388
0.513238 0.571181 0.099175
0.457899 0.571181 0.133247
0.402930 0.571181 0.111567
0.000000 0.571181 0.031250
0.812500 0.534288 0.056424
0.732856 0.534288 0.189452
0.676953 0.534288 0.149914
0.623915 0.534288 0.064670
0.568576 0.534288 0.245661
0.513238 0.534288 0.133246
0.457899 0.534288 0.133247
0.402930 0.534288 0.078255
0.000000 0.534288 0.059462
0.812500 0.497396 0.002604
0.732856 0.497396 0.148220
0.676953 0.497396 0.202083
0.623915 0.497396 0.030816
0.568576 0.497396 0.047742
0.513238 0.497396 0.072483
0.457899 0.497396 0.103734
0.402930 0.497396 0.107227
0.000000 0.497396 0.156250
0.812500 0.461072 0.038928
0.732856 0.461072 0.134114
0.676953 0.461072 0.178892
0.623915 0.461072 0.002170
0.568576 0.461072 0.109975
0.513238 0.461072 0.109106
0.457899 0.461072 0.209936
0.402930 0.461072 0.052001
0.000000 0.461072 0.148572
0.812500 0.000000 0.000000
0.732856 0.000000 0.065538
0.676953 0.000000 0.010547
0.623915 0.000000 0.122830
0.568576 0.000000 0.012152
0.513238 0.000000 0.098524
0.457899 0.000000 0.074653
0.402930 0.000000 0.128320
0.000000 0.000000 0.000000
