tools/reversePheonix.cube
TITLE "Inverted LUT"
LUT_3D_SIZE 33
DOMAIN_MIN 0.000000 0.000000 0.000000
DOMAIN_MAX 1.000000 1.000000 1.000000
0.812500 0.718750 0.843750
0.774360 0.718750 0.875000
0.760525 0.718750 0.875000
0.746691 0.718750 0.878309
0.732856 0.718750 0.892144
0.719021 0.718750 0.905979
0.704389 0.733111 0.877528
0.689740 0.747760 0.848230
0.676953 0.739453 0.885938
0.664502 0.727002 0.935742
0.651584 0.718750 0.973416
0.637750 0.718750 0.987250
0.623915 0.718750 1.000000
0.610080 0.718750 1.000000
0.596246 0.718750 1.000000
0.582411 0.718750 0.943304
0.568576 0.718750 0.874131
0.554742 0.718750 0.851508
0.540907 0.718750 0.865343
0.527073 0.718750 0.879177
0.513238 0.718750 0.893012
0.499403 0.718750 0.905653
0.485569 0.718750 0.891819
0.471734 0.718750 0.877984
0.457899 0.718750 0.885851
0.444065 0.718750 0.899685
0.430230 0.718750 0.906250
0.416395 0.718750 0.906250
0.402930 0.718750 0.916211
0.390479 0.718750 0.953564
0.378027 0.718750 0.990918
0.213449 0.718750 0.946150
0.000000 0.718750 0.875000
0.812500 0.709527 0.852973
0.774360 0.709527 0.875000
0.760525 0.709527 0.875000
0.746691 0.709527 0.900065
0.732856 0.709527 0.919813
0.719021 0.709527 0.933648
0.704389 0.709527 0.914420
0.689740 0.729314 0.885123
0.676953 0.730230 0.885938
0.664502 0.709527 0.935742
0.651584 0.709527 0.973416
0.637750 0.709527 0.987250
0.623915 0.709527 0.989692
0.610080 0.709527 0.981554
0.596246 0.709527 0.981554
0.582411 0.709527 0.924858
0.568576 0.709527 0.868272
0.554742 0.709527 0.869955
0.540907 0.709527 0.883789
0.527073 0.709527 0.888401
0.513238 0.709527 0.902235
0.499403 0.709527 0.914876
0.485569 0.709527 0.901042
0.471734 0.709527 0.880968
0.457899 0.709527 0.885851
0.444065 0.709527 0.902344
0.430230 0.709527 0.915473
0.416395 0.709527 0.915473
0.402930 0.709527 0.908833
0.390479 0.709527 0.916672
0.378027 0.709527 0.954025
0.207759 0.709527 0.910411
0.000000 0.709527 0.884223
0.812500 0.700304 0.862196
0.774360 0.700304 0.875000
0.760525 0.700304 0.890842
0.746691 0.700304 0.918511
0.732856 0.700304 0.946180
0.719021 0.700304 0.961317
0.704389 0.700304 0.947227
0.689740 0.700304 0.922015
0.676953 0.700304 0.917535
0.664502 0.700304 0.935742
0.651584 0.700304 0.973416
0.637750 0.700304 0.981554
0.623915 0.700304 0.980469
0.610080 0.700304 0.966634
0.596246 0.700304 0.963108
0.582411 0.700304 0.906412
0.568576 0.700304 0.886719
0.554742 0.700304 0.888401
0.540907 0.700304 0.893446
0.527073 0.700304 0.897624
0.513238 0.700304 0.911458
0.499403 0.700304 0.924099
0.485569 0.700304 0.908637
0.471734 0.700304 0.880968
0.457899 0.700304 0.885851
0.444065 0.700304 0.911567
0.430230 0.700304 0.924696
0.416395 0.700304 0.924696
0.402930 0.700304 0.918056
0.390479 0.700304 0.893153
0.378027 0.700304 0.917133
0.211608 0.700304 0.877871
0.000000 0.700304 0.893446
0.812500 0.691081 0.871419
0.774360 0.691081 0.881619
0.760525 0.691081 0.909288
0.746691 0.691081 0.936957
0.732856 0.691081 0.964627
0.719021 0.691081 0.988987
0.704389 0.691081 0.974897
0.689740 0.691081 0.958908
0.676953 0.691081 0.954427
0.664502 0.691081 0.954427
0.651584 0.691081 0.972331
0.637750 0.691081 0.972331
0.623915 0.691081 0.971246
0.610080 0.691081 0.957411
0.596246 0.691081 0.944661
0.582411 0.691081 0.919000
0.568576 0.691081 0.905165
0.554742 0.691081 0.902669
0.540907 0.691081 0.902669
0.527073 0.691081 0.906847
0.513238 0.691081 0.920681
0.499403 0.691081 0.933323
0.485569 0.691081 0.908637
0.471734 0.691081 0.880968
0.457899 0.691081 0.893121
0.444065 0.691081 0.920790
0.430230 0.691081 0.933919
0.416395 0.691081 0.933919
0.402930 0.691081 0.927279
0.390479 0.691081 0.902377
0.378027 0.691081 0.880241
0.208808 0.691081 0.884860
0.000000 0.691081 0.902669
0.812500 0.681858 0.869358
0.774360 0.681858 0.894423
0.760525 0.681858 0.922092
0.746691 0.681858 0.943142
0.732856 0.681858 0.966145
0.719021 0.681858 0.993815
0.704389 0.681858 0.991281
0.689740 0.681858 0.976633
0.676953 0.681858 0.974392
0.664502 0.681858 0.974392
0.651584 0.681858 0.974392
0.637750 0.681858 0.974392
0.623915 0.681858 0.945095
0.610080 0.681858 0.931261
0.596246 0.681858 0.920573
0.582411 0.681858 0.914876
0.568576 0.681858 0.901041
0.554742 0.681858 0.906250
0.540907 0.681858 0.906250
0.527073 0.681858 0.918782
0.513238 0.681858 0.935547
0.499403 0.681858 0.946398
0.485569 0.681858 0.908637
0.471734 0.681858 0.880968
0.457899 0.681858 0.902344
0.444065 0.681858 0.930013
0.430230 0.681858 0.943142
0.416395 0.681858 0.943142
0.402930 0.681858 0.919575
0.390479 0.681858 0.894672
0.378027 0.681858 0.872385
0.214544 0.681858 0.881752
0.005642 0.681858 0.900608
0.812500 0.672635 0.860135
0.774360 0.672635 0.887695
0.760525 0.672635 0.931315
0.746691 0.672635 0.952365
0.732856 0.672635 0.956922
0.719021 0.672635 0.984592
0.704389 0.672635 0.999496
0.689740 0.672635 0.985856
0.676953 0.672635 0.983615
0.664502 0.672635 0.983615
0.651584 0.672635 0.983615
0.637750 0.672635 0.973036
0.623915 0.672635 0.908203
0.610080 0.672635 0.894368
0.596246 0.672635 0.892904
0.582411 0.672635 0.892904
0.568576 0.672635 0.882595
0.554742 0.672635 0.892036
0.540907 0.672635 0.906250
0.527073 0.672635 0.918782
0.513238 0.672635 0.953993
0.499403 0.672635 0.964844
0.485569 0.672635 0.909505
0.471734 0.672635 0.880968
0.457899 0.672635 0.907552
0.444065 0.672635 0.939236
0.430230 0.672635 0.952365
0.416395 0.672635 0.938205
0.402930 0.672635 0.901129
0.390479 0.672635 0.876226
0.378027 0.672635 0.863162
0.213449 0.672635 0.873597
0.014865 0.672635 0.891385
0.812500 0.663412 0.850912
0.774360 0.663412 0.878472
0.760525 0.663412 0.933810
0.746691 0.663412 0.961588
0.732856 0.663412 0.961588
0.719021 0.663412 0.975369
0.704389 0.663412 0.990273
0.689740 0.663412 0.995079
0.676953 0.663412 0.992838
0.664502 0.663412 0.992838
0.651584 0.663412 0.992838
0.637750 0.663412 0.936144
0.623915 0.663412 0.871311
0.610080 0.663412 0.865235
0.596246 0.663412 0.865235
0.582411 0.663412 0.865235
0.568576 0.663412 0.864149
0.554742 0.663412 0.873590
0.540907 0.663412 0.901259
0.527073 0.663412 0.918782
0.513238 0.663412 0.960286
0.499403 0.663412 0.983290
0.485569 0.663412 0.927951
0.471734 0.663412 0.880968
0.457899 0.663412 0.907552
0.444065 0.663412 0.948459
0.430230 0.663412 0.961263
0.416395 0.663412 0.919759
0.402930 0.663412 0.882683
0.390479 0.663412 0.866390
0.378027 0.663412 0.853939
0.229638 0.663412 0.864970
0.024088 0.663412 0.882162
0.812500 0.654188 0.851996
0.774360 0.654188 0.877496
0.760525 0.654188 0.932834
0.746691 0.654188 0.966688
0.732856 0.654188 0.966688
0.719021 0.654188 0.966688
0.704389 0.654188 0.981050
0.689740 0.654188 0.995698
0.676953 0.654188 0.991754
0.664502 0.654188 0.991754
0.651584 0.654188 0.986979
0.637750 0.654188 0.917806
0.623915 0.654188 0.854058
0.610080 0.654188 0.854058
0.596246 0.654188 0.854058
0.582411 0.654188 0.854058
0.568576 0.654188 0.854058
0.554742 0.654188 0.861328
0.540907 0.654188 0.888997
0.527073 0.654188 0.920844
0.513238 0.654188 0.962348
0.499403 0.654188 0.987305
0.485569 0.654188 0.931966
0.471734 0.654188 0.876628
0.457899 0.654188 0.899306
0.444065 0.654188 0.940810
0.430230 0.654188 0.938694
0.416395 0.654188 0.897190
0.402930 0.654188 0.871680
0.390479 0.654188 0.859229
0.378027 0.654188 0.846777
0.225023 0.654188 0.858335
0.029188 0.654188 0.872938
0.812500 0.644965 0.888889
0.774360 0.644965 0.905165
0.760525 0.644965 0.958984
0.746691 0.644965 0.973416
0.732856 0.644965 0.957465
0.719021 0.644965 0.957465
0.704389 0.644965 0.971827
0.689740 0.644965 0.986475
0.676953 0.644965 0.957074
0.664502 0.644965 0.954861
0.651584 0.644965 0.973524
0.637750 0.644965 0.963921
0.623915 0.644965 0.900173
0.610080 0.644965 0.900173
0.596246 0.644965 0.891384
0.582411 0.644965 0.900173
0.568576 0.644965 0.900173
0.554742 0.644965 0.884657
0.540907 0.644965 0.898220
0.527073 0.644965 0.930067
0.513238 0.644965 0.971571
0.499403 0.644965 0.941190
0.485569 0.644965 0.885851
0.471734 0.644965 0.863715
0.457899 0.644965 0.863715
0.444065 0.644965 0.903918
0.430230 0.644965 0.901801
0.416395 0.644965 0.865994
0.402930 0.644965 0.879644
0.390479 0.644965 0.859229
0.378027 0.644965 0.846777
0.215626 0.644965 0.845928
0.019965 0.644965 0.863715
0.812500 0.635742 0.925781
0.774360 0.635742 0.932834
0.760525 0.635742 0.968207
0.746691 0.635742 0.982639
0.732856 0.635742 0.954970
0.719021 0.635742 0.948242
0.704389 0.635742 0.962603
0.689740 0.635742 0.977252
0.676953 0.635742 0.947851
0.664502 0.635742 0.917969
0.651584 0.635742 0.936632
0.637750 0.635742 0.991970
0.623915 0.635742 0.946289
0.610080 0.635742 0.942111
0.596246 0.635742 0.928277
0.582411 0.635742 0.937120
0.568576 0.635742 0.946289
0.554742 0.635742 0.930772
0.540907 0.635742 0.907444
0.527073 0.635742 0.939290
0.513238 0.635742 0.937175
0.499403 0.635742 0.895074
0.485569 0.635742 0.854492
0.471734 0.635742 0.854492
0.457899 0.635742 0.854492
0.444065 0.635742 0.867025
0.430230 0.635742 0.864909
0.416395 0.635742 0.875217
0.402930 0.635742 0.888867
0.390479 0.635742 0.863965
0.378027 0.635742 0.846777
0.213449 0.635742 0.843750
0.010742 0.635742 0.854492
0.812500 0.626519 0.962674
0.774360 0.626519 0.949761
0.760525 0.626519 0.977430
0.746691 0.626519 0.991862
0.732856 0.626519 0.964193
0.719021 0.626519 0.939019
0.704389 0.626519 0.953380
0.689740 0.626519 0.968029
0.676953 0.626519 0.938628
0.664502 0.626519 0.901275
0.651584 0.626519 0.899739
0.637750 0.626519 0.955078
0.623915 0.626519 0.992405
0.610080 0.626519 0.979004
0.596246 0.626519 0.965169
0.582411 0.626519 0.974013
0.568576 0.626519 0.987847
0.554742 0.626519 0.976888
0.540907 0.626519 0.949219
0.527073 0.626519 0.932563
0.513238 0.626519 0.891059
0.499403 0.626519 0.848958
0.485569 0.626519 0.845269
0.471734 0.626519 0.845269
0.457899 0.626519 0.845269
0.444065 0.626519 0.845269
0.430230 0.626519 0.856771
0.416395 0.626519 0.884440
0.402930 0.626519 0.898091
0.390479 0.626519 0.873188
0.378027 0.626519 0.848286
0.213449 0.626519 0.843750
0.001519 0.626519 0.845269
0.812500 0.617296 0.953342
0.774360 0.617296 0.935872
0.760525 0.617296 0.963541
0.746691 0.617296 0.954861
0.732856 0.617296 0.927192
0.719021 0.617296 0.951551
0.704389 0.617296 0.928749
0.689740 0.617296 0.943398
0.676953 0.617296 0.913997
0.664502 0.617296 0.876644
0.651584 0.617296 0.885959
0.637750 0.617296 0.941298
0.623915 0.617296 0.990126
0.610080 0.617296 0.969672
0.596246 0.617296 0.955837
0.582411 0.617296 0.964681
0.568576 0.617296 0.975260
0.554742 0.617296 0.953667
0.540907 0.617296 0.925998
0.527073 0.617296 0.924968
0.513238 0.617296 0.883464
0.499403 0.617296 0.844944
0.485569 0.617296 0.859158
0.471734 0.617296 0.859158
0.457899 0.617296 0.859158
0.444065 0.617296 0.861437
0.430230 0.617296 0.889106
0.416395 0.617296 0.916775
0.402930 0.617296 0.891906
0.390479 0.617296 0.867003
0.378027 0.617296 0.860807
0.213449 0.617296 0.859158
0.000000 0.617296 0.859158
0.812500 0.608073 0.934896
0.774360 0.608073 0.917426
0.760525 0.608073 0.925889
0.746691 0.608073 0.908746
0.732856 0.608073 0.900824
0.719021 0.608073 0.969997
0.704389 0.608073 0.913909
0.689740 0.608073 0.915728
0.676953 0.608073 0.886328
0.664502 0.608073 0.866325
0.651584 0.608073 0.876736
0.637750 0.608073 0.932074
0.623915 0.608073 0.980903
0.610080 0.608073 0.953233
0.596246 0.608073 0.937391
0.582411 0.608073 0.946235
0.568576 0.608073 0.938368
0.554742 0.608073 0.916775
0.540907 0.608073 0.918186
0.527073 0.608073 0.924968
0.513238 0.608073 0.883464
0.499403 0.608073 0.844944
0.485569 0.608073 0.872613
0.471734 0.608073 0.877604
0.457899 0.608073 0.877604
0.444065 0.608073 0.898330
0.430230 0.608073 0.925999
0.416395 0.608073 0.919759
0.402930 0.608073 0.882682
0.390479 0.608073 0.863574
0.378027 0.608073 0.888477
0.213991 0.608073 0.884506
0.000000 0.608073 0.877604
0.812500 0.598850 0.916449
0.774360 0.598850 0.893608
0.760525 0.598850 0.879774
0.746691 0.598850 0.862630
0.732856 0.598850 0.919270
0.719021 0.598850 0.988444
0.704389 0.598850 0.932356
0.689740 0.598850 0.888059
0.676953 0.598850 0.869553
0.664502 0.598850 0.857102
0.651584 0.598850 0.867513
0.637750 0.598850 0.922851
0.623915 0.598850 0.971680
0.610080 0.598850 0.944010
0.596246 0.598850 0.918945
0.582411 0.598850 0.915310
0.568576 0.598850 0.901475
0.554742 0.598850 0.890517
0.540907 0.598850 0.918186
0.527073 0.598850 0.924968
0.513238 0.598850 0.883464
0.499403 0.598850 0.844944
0.485569 0.598850 0.872613
0.471734 0.598850 0.896051
0.457899 0.598850 0.907553
0.444065 0.598850 0.935222
0.430230 0.598850 0.952039
0.416395 0.598850 0.910536
0.402930 0.598850 0.873459
0.390479 0.598850 0.891244
0.378027 0.598850 0.916146
0.213449 0.598850 0.908738
0.000000 0.598850 0.896051
0.812500 0.589627 0.898003
0.774360 0.589627 0.863986
0.760525 0.589627 0.850152
0.746691 0.589627 0.860296
0.732856 0.589627 0.929470
0.719021 0.589627 0.987087
0.704389 0.589627 0.930185
0.689740 0.589627 0.879123
0.676953 0.589627 0.868576
0.664502 0.589627 0.856125
0.651584 0.589627 0.866536
0.637750 0.589627 0.921875
0.623915 0.589627 0.966580
0.610080 0.589627 0.938910
0.596246 0.589627 0.911241
0.582411 0.589627 0.890788
0.568576 0.589627 0.876953
0.554742 0.589627 0.882270
0.540907 0.589627 0.909939
0.527073 0.589627 0.916721
0.513238 0.589627 0.875217
0.499403 0.589627 0.849664
0.485569 0.589627 0.880860
0.471734 0.589627 0.908529
0.457899 0.589627 0.936198
0.444065 0.589627 0.963868
0.430230 0.589627 0.946940
0.416395 0.589627 0.905436
0.402930 0.589627 0.881640
0.390479 0.589627 0.906543
0.378027 0.589627 0.930349
0.213449 0.589627 0.919914
0.000000 0.589627 0.902127
0.812500 0.580404 0.879557
0.774360 0.580404 0.854763
0.760525 0.580404 0.843750
0.746691 0.580404 0.860296
0.732856 0.580404 0.929470
0.719021 0.580404 0.959418
0.704389 0.580404 0.902516
0.689740 0.580404 0.888346
0.676953 0.580404 0.877799
0.664502 0.580404 0.865348
0.651584 0.580404 0.875759
0.637750 0.580404 0.930501
0.623915 0.580404 0.966580
0.610080 0.580404 0.938910
0.596246 0.580404 0.911241
0.582411 0.580404 0.883572
0.568576 0.580404 0.867730
0.554742 0.580404 0.869412
0.540907 0.580404 0.891493
0.527073 0.580404 0.898275
0.513238 0.580404 0.857096
0.499403 0.580404 0.858887
0.485569 0.580404 0.899306
0.471734 0.580404 0.926975
0.457899 0.580404 0.954644
0.444065 0.580404 0.961968
0.430230 0.580404 0.940863
0.416395 0.580404 0.905436
0.402930 0.580404 0.881640
0.390479 0.580404 0.906543
0.378027 0.580404 0.921126
0.213449 0.580404 0.910691
0.000000 0.580404 0.892904
0.812500 0.571181 0.861111
0.774360 0.571181 0.845540
0.760525 0.571181 0.843750
0.746691 0.571181 0.860296
0.732856 0.571181 0.904080
0.719021 0.571181 0.931749
0.704389 0.571181 0.897569
0.689740 0.571181 0.897569
0.676953 0.571181 0.887022
0.664502 0.571181 0.874571
0.651584 0.571181 0.884982
0.637750 0.571181 0.930501
0.623915 0.571181 0.966580
0.610080 0.571181 0.938910
0.596246 0.571181 0.911241
0.582411 0.571181 0.883572
0.568576 0.571181 0.858507
0.554742 0.571181 0.860189
0.540907 0.571181 0.874023
0.527073 0.571181 0.879829
0.513238 0.571181 0.866319
0.499403 0.571181 0.868110
0.485569 0.571181 0.909614
0.471734 0.571181 0.945421
0.457899 0.571181 0.966580
0.444065 0.571181 0.952745
0.430230 0.571181 0.931640
0.416395 0.571181 0.903971
0.402930 0.571181 0.881640
0.390479 0.571181 0.899452
0.378027 0.571181 0.911903
0.212700 0.571181 0.902249
0.000000 0.571181 0.883681
0.812500 0.561958 0.844292
0.774360 0.561958 0.843750
0.760525 0.561958 0.843750
0.746691 0.561958 0.850369
0.732856 0.561958 0.878038
0.719021 0.561958 0.905978
0.704389 0.561958 0.906792
0.689740 0.561958 0.906792
0.676953 0.561958 0.896246
0.664502 0.561958 0.883794
0.651584 0.561958 0.887370
0.637750 0.561958 0.928874
0.623915 0.561958 0.964952
0.610080 0.561958 0.937283
0.596246 0.561958 0.909614
0.582411 0.561958 0.883572
0.568576 0.561958 0.855902
0.554742 0.561958 0.850966
0.540907 0.561958 0.864800
0.527073 0.561958 0.875542
0.513238 0.561958 0.875542
0.499403 0.561958 0.877333
0.485569 0.561958 0.918837
0.471734 0.561958 0.960341
0.457899 0.561958 0.958442
0.444065 0.561958 0.944607
0.430230 0.561958 0.922417
0.416395 0.561958 0.894748
0.402930 0.561958 0.879405
0.390479 0.561958 0.891856
0.378027 0.561958 0.904308
0.213449 0.561958 0.893872
0.000542 0.561958 0.874458
0.812500 0.552734 0.853516
0.774360 0.552734 0.852376
0.760525 0.552734 0.843750
0.746691 0.552734 0.850369
0.732856 0.552734 0.878038
0.719021 0.552734 0.915201
0.704389 0.552734 0.916016
0.689740 0.552734 0.916016
0.676953 0.552734 0.905469
0.664502 0.552734 0.893018
0.651584 0.552734 0.880100
0.637750 0.552734 0.901204
0.623915 0.552734 0.937283
0.610080 0.552734 0.909614
0.596246 0.552734 0.896484
0.582411 0.552734 0.883572
0.568576 0.552734 0.855902
0.554742 0.552734 0.843750
0.540907 0.552734 0.855577
0.527073 0.552734 0.873589
0.513238 0.552734 0.884766
0.499403 0.552734 0.886556
0.485569 0.552734 0.928060
0.471734 0.552734 0.969564
0.457899 0.552734 0.967665
0.444065 0.552734 0.947428
0.430230 0.552734 0.913194
0.416395 0.552734 0.885525
0.402930 0.552734 0.891406
0.390479 0.552734 0.910303
0.378027 0.552734 0.922754
0.215443 0.552734 0.907323
0.009766 0.552734 0.865234
0.812500 0.543511 0.862739
0.774360 0.543511 0.880045
0.760525 0.543511 0.843750
0.746691 0.543511 0.850369
0.732856 0.543511 0.882921
0.719021 0.543511 0.924425
0.704389 0.543511 0.925239
0.689740 0.543511 0.925239
0.676953 0.543511 0.914692
0.664502 0.543511 0.902241
0.651584 0.543511 0.889323
0.637750 0.543511 0.875488
0.623915 0.543511 0.909614
0.610080 0.543511 0.887261
0.596246 0.543511 0.887261
0.582411 0.543511 0.875922
0.568576 0.543511 0.855902
0.554742 0.543511 0.843750
0.540907 0.543511 0.846354
0.527073 0.543511 0.864366
0.513238 0.543511 0.892035
0.499403 0.543511 0.895779
0.485569 0.543511 0.937283
0.471734 0.543511 0.978787
0.457899 0.543511 0.976888
0.444065 0.543511 0.938205
0.430230 0.543511 0.903971
0.416395 0.543511 0.893989
0.402930 0.543511 0.900629
0.390479 0.543511 0.925532
0.378027 0.543511 0.941200
0.214650 0.543511 0.927161
0.018989 0.543511 0.856011
0.812500 0.534288 0.871962
0.774360 0.534288 0.907715
0.760525 0.534288 0.866211
0.746691 0.534288 0.850640
0.732856 0.534288 0.892144
0.719021 0.534288 0.933648
0.704389 0.534288 0.934462
0.689740 0.534288 0.934462
0.676953 0.534288 0.923915
0.664502 0.534288 0.911464
0.651584 0.534288 0.898546
0.637750 0.534288 0.884711
0.623915 0.534288 0.881944
0.610080 0.534288 0.878038
0.596246 0.534288 0.878038
0.582411 0.534288 0.866699
0.568576 0.534288 0.852864
0.554742 0.534288 0.843750
0.540907 0.534288 0.843750
0.527073 0.534288 0.855143
0.513238 0.534288 0.882812
0.499403 0.534288 0.905002
0.485569 0.534288 0.946506
0.471734 0.534288 0.988010
0.457899 0.534288 0.970486
0.444065 0.534288 0.928982
0.430230 0.534288 0.903212
0.416395 0.534288 0.903212
0.402930 0.534288 0.909852
0.390479 0.534288 0.934755
0.378027 0.534288 0.959646
0.221984 0.534288 0.923207
0.028212 0.534288 0.846788
0.812500 0.525065 0.881185
0.774360 0.525065 0.929199
0.760525 0.525065 0.887696
0.746691 0.525065 0.847059
0.732856 0.525065 0.882812
0.719021 0.525065 0.924316
0.704389 0.525065 0.925130
0.689740 0.525065 0.921185
0.676953 0.525065 0.908398
0.664502 0.525065 0.895947
0.651584 0.525065 0.913954
0.637750 0.525065 0.900120
0.623915 0.525065 0.899740
0.610080 0.525065 0.899740
0.596246 0.525065 0.881293
0.582411 0.525065 0.857476
0.568576 0.525065 0.843859
0.554742 0.525065 0.849935
0.540907 0.525065 0.849935
0.527073 0.525065 0.849935
0.513238 0.525065 0.873589
0.499403 0.525065 0.901855
0.485569 0.525065 0.943359
0.471734 0.525065 0.981662
0.457899 0.525065 0.961263
0.444065 0.525065 0.919759
0.430230 0.525065 0.900065
0.416395 0.525065 0.900065
0.402930 0.525065 0.931445
0.390479 0.525065 0.956348
0.378027 0.525065 0.959147
0.221862 0.525065 0.934354
0.025065 0.525065 0.862305
0.812500 0.515842 0.890408
0.774360 0.515842 0.947645
0.760525 0.515842 0.896376
0.746691 0.515842 0.847059
0.732856 0.515842 0.864366
0.719021 0.515842 0.905870
0.704389 0.515842 0.906684
0.689740 0.515842 0.893516
0.676953 0.515842 0.880729
0.664502 0.515842 0.904058
0.651584 0.515842 0.932400
0.637750 0.515842 0.923883
0.623915 0.515842 0.936632
0.610080 0.515842 0.936632
0.596246 0.515842 0.872070
0.582411 0.515842 0.848253
0.568576 0.515842 0.853082
0.554742 0.515842 0.859158
0.540907 0.515842 0.859158
0.527073 0.515842 0.859158
0.513238 0.515842 0.864366
0.499403 0.515842 0.892632
0.485569 0.515842 0.934136
0.471734 0.515842 0.963216
0.457899 0.515842 0.947482
0.444065 0.515842 0.910535
0.430230 0.515842 0.890842
0.416395 0.515842 0.911892
0.402930 0.515842 0.959115
0.390479 0.515842 0.984017
0.378027 0.515842 0.922254
0.214842 0.515842 0.947294
0.015842 0.515842 0.889974
0.812500 0.506619 0.899631
0.774360 0.506619 0.965549
0.760525 0.506619 0.896376
0.746691 0.506619 0.847059
0.732856 0.506619 0.860894
0.719021 0.506619 0.887423
0.704389 0.506619 0.880495
0.689740 0.506619 0.865847
0.676953 0.506619 0.872700
0.664502 0.506619 0.922504
0.651584 0.506619 0.950847
0.637750 0.506619 0.960775
0.623915 0.506619 0.973525
0.610080 0.506619 0.932020
0.596246 0.506619 0.862847
0.582411 0.506619 0.848470
0.568576 0.506619 0.862305
0.554742 0.506619 0.868381
0.540907 0.506619 0.868381
0.527073 0.506619 0.868381
0.513238 0.506619 0.868381
0.499403 0.506619 0.883409
0.485569 0.506619 0.917101
0.471734 0.506619 0.944770
0.457899 0.506619 0.929036
0.444065 0.506619 0.901312
0.430230 0.506619 0.884224
0.416395 0.506619 0.939562
0.402930 0.506619 0.986784
0.390479 0.506619 0.947618
0.378027 0.506619 0.885362
0.211584 0.506619 0.909106
0.006619 0.506619 0.917644
0.812500 0.497396 0.908854
0.774360 0.497396 0.955132
0.760525 0.497396 0.885959
0.746691 0.497396 0.847059
0.732856 0.497396 0.860894
0.719021 0.497396 0.884060
0.704389 0.497396 0.863243
0.689740 0.497396 0.848594
0.676953 0.497396 0.880729
0.664502 0.497396 0.930534
0.651584 0.497396 0.965603
0.637750 0.497396 0.979438
0.623915 0.497396 0.993272
0.610080 0.497396 0.933214
0.596246 0.497396 0.864041
0.582411 0.497396 0.862902
0.568576 0.497396 0.876737
0.554742 0.497396 0.885417
0.540907 0.497396 0.885417
0.527073 0.497396 0.885417
0.513238 0.497396 0.885417
0.499403 0.497396 0.881402
0.485569 0.497396 0.909071
0.471734 0.497396 0.936741
0.457899 0.497396 0.921007
0.444065 0.497396 0.893338
0.430230 0.497396 0.909289
0.416395 0.497396 0.964627
0.402930 0.497396 0.986003
0.390479 0.497396 0.923747
0.378027 0.497396 0.861491
0.213622 0.497396 0.886742
0.000000 0.497396 0.940104
0.812500 0.488173 0.918077
0.774360 0.488173 0.918240
0.760525 0.488173 0.854275
0.746691 0.488173 0.847059
0.732856 0.488173 0.860894
0.719021 0.488173 0.920952
0.704389 0.488173 0.872466
0.689740 0.488173 0.857818
0.676953 0.488173 0.866124
0.664502 0.488173 0.912087
0.651584 0.488173 0.945095
0.637750 0.488173 0.951768
0.623915 0.488173 0.965603
0.610080 0.488173 0.960883
0.596246 0.488173 0.891710
0.582411 0.488173 0.890571
0.568576 0.488173 0.881401
0.554742 0.488173 0.901965
0.540907 0.488173 0.922309
0.527073 0.488173 0.922309
0.513238 0.488173 0.922309
0.499403 0.488173 0.899848
0.485569 0.488173 0.927518
0.471734 0.488173 0.910970
0.457899 0.488173 0.934570
0.444065 0.488173 0.911784
0.430230 0.488173 0.927735
0.416395 0.488173 0.971300
0.402930 0.488173 0.944184
0.390479 0.488173 0.932970
0.378027 0.488173 0.870714
0.212343 0.488173 0.896052
0.000000 0.488173 0.949327
0.812500 0.478950 0.927300
0.774360 0.478950 0.881347
0.760525 0.478950 0.854275
0.746691 0.478950 0.847059
0.732856 0.478950 0.888671
0.719021 0.478950 0.957845
0.704389 0.478950 0.901756
0.689740 0.478950 0.867041
0.676953 0.478950 0.875347
0.664502 0.478950 0.893641
0.651584 0.478950 0.926649
0.637750 0.478950 0.926649
0.623915 0.478950 0.937934
0.610080 0.478950 0.951769
0.596246 0.478950 0.919379
0.582411 0.478950 0.913682
0.568576 0.478950 0.872178
0.554742 0.478950 0.892742
0.540907 0.478950 0.959201
0.527073 0.478950 0.959201
0.513238 0.478950 0.943577
0.499403 0.478950 0.918294
0.485569 0.478950 0.924805
0.471734 0.478950 0.883301
0.457899 0.478950 0.906901
0.444065 0.478950 0.930230
