tools/reversePheonix.cube
TITLE "Inverted LUT"
LUT_3D_SIZE 5
DOMAIN_MIN 0.000000 0.000000 0.000000
DOMAIN_MAX 1.000000 1.000000 1.000000
0.812500 0.718750 0.843750
0.676953 0.739453 0.885938
0.568576 0.718750 0.874131
0.457899 0.718750 0.885851
0.000000 0.718750 0.875000
0.812500 0.644965 0.888889
0.676953 0.644965 0.957074
0.568576 0.644965 0.900173
0.457899 0.644965 0.863715
0.019965 0.644965 0.863715
0.812500 0.571181 0.861111
0.676953 0.571181 0.887022
0.568576 0.571181 0.858507
0.457899 0.571181 0.966580
0.000000 0.571181 0.883681
0.812500 0.497396 0.908854
0.676953 0.497396 0.880729
0.568576 0.497396 0.876737
0.457899 0.497396 0.921007
0.000000 0.497396 0.940104
0.812500 0.000000 0.843750
0.676953 0.000000 0.854297
0.568576 0.000000 0.868055
0.457899 0.010851 0.926649
0.000000 0.000000 0.843750
0.812500 0.782894 0.733964
0.676953 0.830220 0.733964
0.568576 0.771337 0.733964
0.457899 0.873014 0.733964
0.000000 0.825248 0.733964
0.833287 0.644965 0.733964
0.676953 0.644965 0.733964
0.568576 0.644965 0.733964
0.457899 0.644965 0.733964
0.023757 0.644965 0.733964
0.821181 0.571181 0.733964
0.676953 0.571181 0.733964
0.568576 0.571181 0.733964
0.457899 0.571181 0.733964
0.109283 0.571181 0.733964
0.868147 0.497396 0.733964
0.676953 0.497396 0.733964
0.568576 0.497396 0.733964
0.457899 0.497396 0.733964
0.070725 0.497396 0.733964
0.812500 0.030428 0.733964
0.676953 0.148686 0.733964
0.568576 0.173657 0.733964
0.457899 0.190105 0.733964
0.000000 0.030428 0.733964
0.812500 0.718750 0.634673
0.676953 0.751358 0.634673
0.568576 0.728423 0.634673
0.457899 0.862847 0.634673
0.000000 0.750000 0.634673
0.878845 0.644965 0.634673
0.676953 0.644965 0.634673
0.568576 0.644965 0.634673
0.457899 0.644965 0.634673
0.095362 0.644965 0.634673
0.834821 0.571181 0.634673
0.676953 0.571181 0.634673
0.568576 0.571181 0.634673
0.457899 0.571181 0.634673
0.091022 0.571181 0.634673
0.941592 0.497396 0.634673
0.676953 0.497396 0.634673
0.568576 0.497396 0.634673
0.457899 0.497396 0.634673
0.122024 0.497396 0.634673
0.812500 0.009673 0.634673
0.676953 0.051860 0.634673
0.568576 0.084820 0.634673
0.457899 0.051773 0.634673
0.000000 0.043155 0.634673
0.812500 0.781250 0.535342
0.676953 0.877363 0.535342
0.568576 0.923115 0.535342
0.457899 0.878969 0.535342
0.000000 0.862724 0.535342
0.846354 0.644965 0.535342
0.676953 0.644965 0.535342
0.568576 0.644965 0.535342
0.457899 0.644965 0.535342
0.008184 0.644965 0.535342
0.862227 0.571181 0.535342
0.676953 0.571181 0.535342
0.568576 0.571181 0.535342
0.457899 0.571181 0.535342
0.076389 0.571181 0.535342
0.848959 0.497396 0.535342
0.676953 0.497396 0.535342
0.568576 0.497396 0.535342
0.457899 0.497396 0.535342
0.022320 0.497396 0.535342
0.812500 0.039434 0.535342
0.676953 0.039434 0.535342
0.568576 0.251984 0.535342
0.457899 0.021702 0.535342
0.000000 0.139881 0.535342
0.812500 0.718750 0.000000
0.676953 0.718750 0.083594
0.568576 0.718750 0.024305
0.457899 0.718750 0.084202
0.000000 0.718750 0.000000
0.812500 0.644965 0.000000
0.676953 0.644965 0.134765
0.568576 0.644965 0.166667
0.457899 0.644965 0.136719
0.000000 0.644965 0.067708
0.812500 0.571181 0.008681
0.676953 0.571181 0.069575
0.568576 0.571181 0.076388
0.457899 0.571181 0.133247
0.000000 0.571181 0.031250
0.812500 0.497396 0.002604
0.676953 0.497396 0.202083
0.568576 0.497396 0.047742
0.457899 0.497396 0.103734
0.000000 0.497396 0.156250
0.812500 0.000000 0.000000
0.676953 0.000000 0.010547
0.568576 0.000000 0.012152
0.457899 0.000000 0.074653
0.000000 0.000000 0.000000
